!!!!SEGMENT: pl-wtm--r-693-m--002-002_moniuszko-stanislaw--sonety-krymskie-zegluga.krn
!!!cenid: 18xx:2933
!!!COM: Moniuszko, Stanisław
!!!COM-rismID: pe30008351
!!!CDT: 1819/05/05-1872/06/04
!!!CNT: Polish
!!!GTL: Sonety krymskie
!!!OTL: Żegluga
!!!OMV: 002
!!!PDT:
!!!AGN: Secular; Sonnet
!!!SMS-siglum: PL-Wtm
!!!SMS-shelfmark: R 693/M
!!!SMS-shelfwork: 002-002 G
!!!SMS-variant:
!!!SMS-altvar:
!!!NIFC-rismSourceID: 1001096150
!!!NIFC-rismChildID: 1001096150
!!!NIFC-islandoraID:
!!!URL-pdf-islandora:
!!!URL-scan:
!!!IIIF:
!!!ONB-nifc: UWAGA: zbiór zawiera: 1. Cisza morska, 2. Żegluga, 3. Burza, 4. Ruina, 5. Noc, 6. Hymn, 7. Pielgrzym, 8. Epilog
!!!OMD: Allegro non troppo presto.
!!!AIN: 1 alto 5 empty 1 soprn 1 tenor
!!!key:
**kern	**kern	**text	**text	**text	**text	**dynam	**kern	**text	**dynam	**kern	**text	**text	**text	**text	**text	**dynam	**kern	**kern	**text	**text	**text	**text	**dynam	**kern	**text	**text	**kern	**text	**text	**text	**text	**text	**text	**text	**dynam
*part8	*part7	*part7	*part7	*part7	*part7	*part7	*part6	*part6	*part6	*part5	*part5	*part5	*part5	*part5	*part5	*part5	*part4	*part3	*part3	*part3	*part3	*part3	*part3	*part2	*part2	*part2	*part1	*part1	*part1	*part1	*part1	*part1	*part1	*part1	*part1
*staff8	*staff7	*staff7	*staff7	*staff7	*staff7	*	*staff6	*staff6	*	*staff5	*staff5	*staff5	*staff5	*staff5	*staff5	*	*staff4	*staff3	*staff3	*staff3	*staff3	*staff3	*	*staff2	*staff2	*staff2	*staff1	*staff1	*staff1	*staff1	*staff1	*staff1	*staff1	*staff1	*
*Iempty	*Iempty	*	*	*	*	*	*Iempty	*	*	*Itenor	*	*	*	*	*	*	*Iempty	*Ialto	*	*	*	*	*	*Iempty	*	*	*Isoprn	*	*	*	*	*	*	*	*
*	*I"Bas.	*	*	*	*	*	*	*	*	*I"Tenor	*	*	*	*	*	*	*	*I"Alt.	*	*	*	*	*	*	*	*	*I"Sopran	*	*	*	*	*	*	*	*
*clefF4	*clefF4	*	*	*	*	*	*clefG2	*	*	*clefG2	*	*	*	*	*	*	*clefG2	*clefG2	*	*	*	*	*	*clefG2	*	*	*clefG2	*	*	*	*	*	*	*	*
*	*	*	*	*	*	*	*ITrd8c12	*	*	*ITrd8c12	*	*	*	*	*	*	*	*	*	*	*	*	*	*	*	*	*	*	*	*	*	*	*	*	*
*k[]	*k[]	*	*	*	*	*	*k[]	*	*	*k[]	*	*	*	*	*	*	*k[]	*k[]	*	*	*	*	*	*k[]	*	*	*k[]	*	*	*	*	*	*	*	*
*C:	*C:	*	*	*	*	*	*C:	*	*	*C:	*	*	*	*	*	*	*C:	*C:	*	*	*	*	*	*C:	*	*	*C:	*	*	*	*	*	*	*	*
*M4/4	*M4/4	*	*	*	*	*	*M4/4	*	*	*M4/4	*	*	*	*	*	*	*M4/4	*M4/4	*	*	*	*	*	*M4/4	*	*	*M4/4	*	*	*	*	*	*	*	*
*met(c)	*met(c)	*	*	*	*	*	*met(c)	*	*	*met(c)	*	*	*	*	*	*	*met(c)	*met(c)	*	*	*	*	*	*met(c)	*	*	*met(c)	*	*	*	*	*	*	*	*
*color:darkblue	*	*	*	*	*	*	*color:darkblue	*color:darkblue	*	*	*	*	*	*	*	*	*color:darkblue	*	*	*	*	*	*	*color:darkblue	*color:darkblue	*	*	*	*	*	*	*	*	*	*
=1	=1	=1	=1	=1	=1	=1	=1	=1	=1	=1	=1	=1	=1	=1	=1	=1	=1	=1	=1	=1	=1	=1	=1	=1	=1	=1	=1	=1	=1	=1	=1	=1	=1	=1	=1
!	!LO:TX:a:t=7.	!	!	!	!	!	!	!	!	!LO:TX:a:t=7	!	!	!	!	!	!	!	!LO:TX:a:t=7.	!	!	!	!	!	!	!	!	!LO:TX:a:t=7.	!	!	!	!	!	!	!	!
1ryy	1r	.	.	.	.	.	1ryy	.	.	1r	.	.	.	.	.	.	1ryy	1r	.	.	.	.	.	1ryy	.	.	1r	.	.	.	.	.	.	.	.
=2	=2	=2	=2	=2	=2	=2	=2	=2	=2	=2	=2	=2	=2	=2	=2	=2	=2	=2	=2	=2	=2	=2	=2	=2	=2	=2	=2	=2	=2	=2	=2	=2	=2	=2	=2
1ryy	1r	.	.	.	.	.	1ryy	.	.	1r	.	.	.	.	.	.	1ryy	1r	.	.	.	.	.	1ryy	.	.	1r	.	.	.	.	.	.	.	.
=3	=3	=3	=3	=3	=3	=3	=3	=3	=3	=3	=3	=3	=3	=3	=3	=3	=3	=3	=3	=3	=3	=3	=3	=3	=3	=3	=3	=3	=3	=3	=3	=3	=3	=3	=3
1ryy	1r	.	.	.	.	.	1ryy	.	.	1r	.	.	.	.	.	.	1ryy	1r	.	.	.	.	.	1ryy	.	.	1r	.	.	.	.	.	.	.	.
=4	=4	=4	=4	=4	=4	=4	=4	=4	=4	=4	=4	=4	=4	=4	=4	=4	=4	=4	=4	=4	=4	=4	=4	=4	=4	=4	=4	=4	=4	=4	=4	=4	=4	=4	=4
1ryy	1r	.	.	.	.	.	1ryy	.	.	1r	.	.	.	.	.	.	1ryy	1r	.	.	.	.	.	1ryy	.	.	1r	.	.	.	.	.	.	.	.
=5	=5	=5	=5	=5	=5	=5	=5	=5	=5	=5	=5	=5	=5	=5	=5	=5	=5	=5	=5	=5	=5	=5	=5	=5	=5	=5	=5	=5	=5	=5	=5	=5	=5	=5	=5
1ryy	1r	.	.	.	.	.	1ryy	.	.	1r	.	.	.	.	.	.	1ryy	1r	.	.	.	.	.	1ryy	.	.	1r	.	.	.	.	.	.	.	.
=6	=6	=6	=6	=6	=6	=6	=6	=6	=6	=6	=6	=6	=6	=6	=6	=6	=6	=6	=6	=6	=6	=6	=6	=6	=6	=6	=6	=6	=6	=6	=6	=6	=6	=6	=6
1ryy	1r	.	.	.	.	.	1ryy	.	.	1r	.	.	.	.	.	.	1ryy	1r	.	.	.	.	.	1ryy	.	.	1r	.	.	.	.	.	.	.	.
=7	=7	=7	=7	=7	=7	=7	=7	=7	=7	=7	=7	=7	=7	=7	=7	=7	=7	=7	=7	=7	=7	=7	=7	=7	=7	=7	=7	=7	=7	=7	=7	=7	=7	=7	=7
1ryy	1r	.	.	.	.	.	1ryy	.	.	1r	.	.	.	.	.	.	1ryy	1r	.	.	.	.	.	1ryy	.	.	1r	.	.	.	.	.	.	.	.
=8	=8	=8	=8	=8	=8	=8	=8	=8	=8	=8	=8	=8	=8	=8	=8	=8	=8	=8	=8	=8	=8	=8	=8	=8	=8	=8	=8	=8	=8	=8	=8	=8	=8	=8	=8
*	*^	*	*	*	*	*	*	*	*	*^	*	*	*	*	*	*	*	*^	*	*	*	*	*	*	*	*	*^	*	*	*	*	*	*	*	*
*	*	*	*	*	*	*	*	*	*	*	*	*	*	*	*color:darkblue	*	*	*	*	*	*	*	*	*	*	*	*	*	*	*	*	*	*	*color:darkblue	*	*	*	*	*
1ryy	8B-X^/@	2B-^>\	Szum!	Cre-	.	.	.	1ryy	.	.	8B-X^/@	2B-^>\	Szum!	Cre-	Braust's,	.	.	.	1ryy	2r	2ryy	.	.	.	.	.	1ryy	.	.	2r	2ryy	.	.	.	.	.	.	.	.
.	4.B-/@	.	.	-sce	.	.	.	.	.	.	4.B-/@	.	.	-sce	.	.	.	.	.	.	.	.	.	.	.	.	.	.	.	.	.	.	.	.	.	.	.	.	.
.	4r	2ryy	.	.	.	.	.	.	.	.	4r	2ryy	.	.	.	.	.	.	.	8b-X^/@	[2b-^>\	Szum!	Cre-	.	.	.	.	.	.	8b-X^/@	[>2b-^>\	Szum!	Cre-	Braust's	.	.	.	.	.
.	.	.	.	.	.	.	.	.	.	.	.	.	.	.	.	.	.	.	.	4.b-/@	.	.	-sce	.	.	.	.	.	.	4.b-/@	.	.	-sce	.	.	.	.	.	.
.	8.B-\	.	więk-	il	.	.	.	.	.	.	8.B-\	.	więk-	il	lau-	.	.	.	.	.	.	.	.	.	.	.	.	.	.	.	.	.	.	.	.	.	.	.	.
.	16B-\	.	-szy	ru-	.	.	.	.	.	.	16B-\	.	-szy	ru-	-ter	.	.	.	.	.	.	.	.	.	.	.	.	.	.	.	.	.	.	.	.	.	.	.	.
*	*v	*v	*	*	*	*	*	*	*	*	*v	*v	*	*	*	*	*	*	*	*v	*v	*	*	*	*	*	*	*	*	*v	*v	*	*	*	*	*	*	*	*
=9	=9	=9	=9	=9	=9	=9	=9	=9	=9	=9	=9	=9	=9	=9	=9	=9	=9	=9	=9	=9	=9	=9	=9	=9	=9	=9	=9	=9	=9	=9	=9	=9	=9	=9	=9
4.B-X\	[2B-X^\	szum	-mor	.	.	.	4.B-X\	braust's,	.	[2B-X^\	szum	-mor	.	.	.	.	1ryy	8b-\]	.	.	.	.	.	1ryy	.	.	8b-\]	.	.	.	.	.	.	.	.
.	.	.	.	.	.	.	.	.	.	.	.	.	.	.	.	.	.	8r	.	.	.	.	.	.	.	.	8r	.	.	.	.	.	.	.	.
.	.	.	.	.	.	.	.	.	.	.	.	.	.	.	.	.	.	8.b-y\	więk-	il	.	.	.	.	.	.	8.b-y\	więk-	il	lau-	.	.	.	.	.
8B-\	.	.	.	.	.	.	8B-\	es	.	.	.	.	.	.	.	.	.	.	.	.	.	.	.	.	.	.	.	.	.	.	.	.	.	.	.
.	.	.	.	.	.	.	.	.	.	.	.	.	.	.	.	.	.	16b-\	-szy	ru-	.	.	.	.	.	.	16b-\	-szy	ru-	-ter	.	.	.	.	.
4B-\	8B-\]	.	.	.	.	.	4B-\	thür-	.	8B-\]	.	.	.	.	.	.	.	[2b-^\	szum	-mor	.	.	.	.	.	.	[2b-^\	szum	-mor	braust's	.	.	.	.	.
.	8r	.	.	.	.	.	.	.	.	8r	.	.	.	.	.	.	.	.	.	.	.	.	.	.	.	.	.	.	.	.	.	.	.	.	.
8.B-\	8.B-\	mor-	i	.	.	.	8.B-\	-men	.	8.B-\	mor-	i	.	.	.	.	.	.	.	.	.	.	.	.	.	.	.	.	.	.	.	.	.	.	.
16B-\	16B-\	-skie	fan-	.	.	.	16B-\	ge	.	16B-\	-skie	fan-	.	.	.	.	.	.	.	.	.	.	.	.	.	.	.	.	.	.	.	.	.	.	.
!!LO:LB:g=original
=10	=10	=10	=10	=10	=10	=10	=10	=10	=10	=10	=10	=10	=10	=10	=10	=10	=10	=10	=10	=10	=10	=10	=10	=10	=10	=10	=10	=10	=10	=10	=10	=10	=10	=10	=10
*	*^	*	*	*	*	*	*	*	*	*^	*	*	*	*	*	*	*	*	*	*	*	*	*	*	*	*	*	*	*	*	*	*	*	*	*
1ryy	4.B-X\	2ryy	snu-	-tas-	.	.	.	1ryy	.	.	4.B-X\	2ryy	snu-	-tas-	spens-	.	.	.	1ryy	8b-\]	.	.	.	.	.	1ryy	.	.	8b-\]	.	.	.	.	.	.	.	.
.	.	.	.	.	.	.	.	.	.	.	.	.	.	.	.	.	.	.	.	8r	.	.	.	.	.	.	.	.	8r	.	.	.	.	.	.	.	.
.	.	.	.	.	.	.	.	.	.	.	.	.	.	.	.	.	.	.	.	4r	.	.	.	.	.	.	.	.	4r	.	.	.	.	.	.	.	.
.	8B-\	.	-ją	-mi_ac-	.	.	.	.	.	.	8B-\	.	-ją	-mi_ac-	-tisch	.	.	.	.	.	.	.	.	.	.	.	.	.	.	.	.	.	.	.	.	.	.
.	4B-/§	4.B-\	się	-cor-	.	.	.	.	.	.	4B-/§	4.B-\	się	-cor-	sich	.	.	.	.	2r	.	.	.	.	.	.	.	.	2r	.	.	.	.	.	.	.	.
.	8B-/§	.	.	-ran	.	.	.	.	.	.	8B-/§	.	.	-ran	.	.	.	.	.	.	.	.	.	.	.	.	.	.	.	.	.	.	.	.	.	.	.
.	8B-/§	8B-\	stra-	sui	.	.	.	.	.	.	8B-/§	8B-\	stra-	sui	die	.	.	.	.	.	.	.	.	.	.	.	.	.	.	.	.	.	.	.	.	.	.
*	*v	*v	*	*	*	*	*	*	*	*	*v	*v	*	*	*	*	*	*	*	*	*	*	*	*	*	*	*	*	*	*	*	*	*	*	*	*	*
=11	=11	=11	=11	=11	=11	=11	=11	=11	=11	=11	=11	=11	=11	=11	=11	=11	=11	=11	=11	=11	=11	=11	=11	=11	=11	=11	=11	=11	=11	=11	=11	=11	=11	=11	=11
1ryy	4B-X\	-szy-	flut-	.	.	.	1ryy	.	.	4B-X\	-szy-	flut-	Wo-	.	.	.	1ryy	1r	.	.	.	.	.	1ryy	.	.	1r	.	.	.	.	.	.	.	.
.	4A\	-dła	-ti	.	.	.	.	.	.	4A/	-dła	-ti	-gen;	.	.	.	.	.	.	.	.	.	.	.	.	.	.	.	.	.	.	.	.	.	.
.	2r	.	.	.	.	.	.	.	.	2r	.	.	.	.	.	.	.	.	.	.	.	.	.	.	.	.	.	.	.	.	.	.	.	.	.
=12	=12	=12	=12	=12	=12	=12	=12	=12	=12	=12	=12	=12	=12	=12	=12	=12	=12	=12	=12	=12	=12	=12	=12	=12	=12	=12	=12	=12	=12	=12	=12	=12	=12	=12	=12
*	*	*	*	*	*	*	*	*color:darkblue	*	*	*	*	*	*	*	*	*	*	*	*	*	*	*	*	*	*	*	*	*	*	*	*	*	*	*
1ryy	1r	.	.	.	.	.	8.r	.	.	4r	.	.	.	.	.	.	1ryy	1r	.	.	.	.	.	1ryy	.	.	1r	.	.	.	.	.	.	.	.
.	.	.	.	.	.	.	16A/	Der	.	.	.	.	.	.	.	.	.	.	.	.	.	.	.	.	.	.	.	.	.	.	.	.	.	.	.
.	.	.	.	.	.	.	8.A/	Schif-	.	8.A/	maj-	Il	.	.	.	.	.	.	.	.	.	.	.	.	.	.	.	.	.	.	.	.	.	.	.
.	.	.	.	.	.	.	16A/	-fer	.	16A/	-tek	pi-	.	.	.	.	.	.	.	.	.	.	.	.	.	.	.	.	.	.	.	.	.	.	.
!	!	!	!	!	!	!	!	!	!	!LO:S:n=1:color=red	!	!	!	!	!	!	!	!	!	!	!	!	!	!	!	!	!	!	!	!	!	!	!	!	!
.	.	.	.	.	.	.	8A/	klomm	.	((>4A/	wbiegł	-lo-	.	.	.	.	.	.	.	.	.	.	.	.	.	.	.	.	.	.	.	.	.	.	.
.	.	.	.	.	.	.	8A/	die	.	.	.	.	.	.	.	.	.	.	.	.	.	.	.	.	.	.	.	.	.	.	.	.	.	.	.
!	!	!	!	!	!	!	!LO:TUP:a:problem=klamra łukowa	!	!	!	!	!	!	!	!	!	!	!	!	!	!	!	!	!	!	!	!	!	!	!	!	!	!	!	!
.	.	.	.	.	.	.	12d\	Lei-	.	8d\))	na	.	.	.	.	.	.	.	.	.	.	.	.	.	.	.	.	.	.	.	.	.	.	.	.
.	.	.	.	.	.	.	12d\	-ter	.	.	.	.	.	.	.	.	.	.	.	.	.	.	.	.	.	.	.	.	.	.	.	.	.	.	.
.	.	.	.	.	.	.	.	.	.	8f\	dra-	-ta	.	.	.	.	.	.	.	.	.	.	.	.	.	.	.	.	.	.	.	.	.	.	.
.	.	.	.	.	.	.	12f\	em-	.	.	.	.	.	.	.	.	.	.	.	.	.	.	.	.	.	.	.	.	.	.	.	.	.	.	.
=13	=13	=13	=13	=13	=13	=13	=13	=13	=13	=13	=13	=13	=13	=13	=13	=13	=13	=13	=13	=13	=13	=13	=13	=13	=13	=13	=13	=13	=13	=13	=13	=13	=13	=13	=13
!	!	!	!	!	!	!	!LO:S:color=darkblue	!	!	!	!	!	!	!	!	!	!	!	!	!	!	!	!	!	!	!	!	!	!	!	!	!	!	!	!
1ryy	2r	.	.	.	.	.	(<2e\	-por:	.	2e\	-bi-	gri-	.	.	.	.	1ryy	1r	.	.	.	.	.	1ryy	.	.	1r	.	.	.	.	.	.	.	.
.	4r	.	.	.	.	.	4A/)	.	.	4A/	-nę	-da	.	.	.	.	.	.	.	.	.	.	.	.	.	.	.	.	.	.	.	.	.	.	.
.	8.r	.	.	.	.	.	4ryy	.	.	4r	.	.	.	.	.	.	.	.	.	.	.	.	.	.	.	.	.	.	.	.	.	.	.	.	.
.	16A\	Go-	„All'-	„Ge-	.	.	.	.	.	.	.	.	.	.	.	.	.	.	.	.	.	.	.	.	.	.	.	.	.	.	.	.	.	.	.
!!LO:PB:g=original
=14	=14	=14	=14	=14	=14	=14	=14	=14	=14	=14	=14	=14	=14	=14	=14	=14	=14	=14	=14	=14	=14	=14	=14	=14	=14	=14	=14	=14	=14	=14	=14	=14	=14	=14	=14
!	!LO:T:color=darkblue	!	!	!	!	!	!	!	!	!	!	!	!	!	!	!	!	!	!	!	!	!	!	!	!	!	!	!	!	!	!	!	!	!	!
1ryy	[4d^\	-tuj-	-er-	-schwind	.	.	1ryy	.	.	2r	.	.	.	.	.	.	1ryy	2r	.	.	.	.	.	1ryy	.	.	2r	.	.	.	.	.	.	.	.
.	8.d\]	-cie	-ta	.	.	.	.	.	.	.	.	.	.	.	.	.	.	.	.	.	.	.	.	.	.	.	.	.	.	.	.	.	.	.	.
.	16d\	się	fi-	ihr	.	.	.	.	.	.	.	.	.	.	.	.	.	.	.	.	.	.	.	.	.	.	.	.	.	.	.	.	.	.	.
.	4d\	dzie-	-gliuo-	Jun-	.	.	.	.	.	4r	.	.	.	.	.	.	.	4r	.	.	.	.	.	.	.	.	4r	.	.	.	.	.	.	.	.
.	8D\	-ci	-li	-gen!	.	.	.	.	.	8.r	.	.	.	.	.	.	.	8.r	.	.	.	.	.	.	.	.	8.r	.	.	.	.	.	.	.	.
.	16r	.	.	.	.	.	.	.	.	.	.	.	.	.	.	.	.	.	.	.	.	.	.	.	.	.	.	.	.	.	.	.	.	.	.
!	!	!	!	!	!	!	!	!	!	!	!	!	!	!	!	!LO:DY:a:rj	!	!	!	!	!	!	!LO:DY:a:rj	!	!	!	!	!	!	!	!	!	!	!	!LO:DY:a:rj
.	16d\	go-	al-	Ge-	.	.	.	.	.	16d\	go-	al-	Ge-	.	.	f	.	16d/	go-	al-	Ge-	.	ff	.	.	.	16dd\	go-	al-	Ge-	.	.	.	.	ff
=15	=15	=15	=15	=15	=15	=15	=15	=15	=15	=15	=15	=15	=15	=15	=15	=15	=15	=15	=15	=15	=15	=15	=15	=15	=15	=15	=15	=15	=15	=15	=15	=15	=15	=15	=15
!	!LO:S:color=darkblue	!	!	!	!	!	!	!	!	!LO:S:color=darkblue	!	!	!	!	!	!	!	!LO:S:color=darkblue	!	!	!	!	!	!	!	!	!LO:S:color=darkblue	!	!	!	!	!	!	!	!
1ryy	(4d\	-tuj-	-ler-	-schwind	.	.	1ryy	.	.	(4g\	-tuj-	-ler-	-schwind	.	.	.	1ryy	(>4b-X^>/	-tuj-	-ler-	-schwind	.	.	1ryy	.	.	(4dd^\	-tuj-	-ler-	-schwind	.	.	.	.	.
.	8D\)	-cie	-ta	.	.	.	.	.	.	8d\)	-cie	-ta	.	.	.	.	.	8a/)	-cie	-ta	.	.	.	.	.	.	8cc\)	-cie	-ta	.	.	.	.	.	.
.	8D\	się	fi-	ihr	.	.	.	.	.	8d\	się	fi-	ihr	.	.	.	.	8g/	się	fi-	ihr	.	.	.	.	.	8b-X\	się	fi-	ihr	.	.	.	.	.
.	8D\	dzie-	-gliuo-	Jun-	.	.	.	.	.	8f\	dzie-	-gliuo-	Jun-	.	.	.	.	8f/	dzie-	-gliuo-	jun-	.	.	.	.	.	8a/	dzie-	-gliuo-	Jun-	.	.	.	.	.
.	8D\	-ci	-li	-gen!	.	.	.	.	.	8d\	-ci	-li	-gen!	.	.	.	.	8f/	-ci	-li	-gen!	.	.	.	.	.	8dd\	-ci	-li	-gen!	.	.	.	.	.
.	4r	.	.	.	.	.	.	.	.	4r	.	.	.	.	.	.	.	4r	.	.	.	.	.	.	.	.	4r	.	.	.	.	.	.	.	.
=16	=16	=16	=16	=16	=16	=16	=16	=16	=16	=16	=16	=16	=16	=16	=16	=16	=16	=16	=16	=16	=16	=16	=16	=16	=16	=16	=16	=16	=16	=16	=16	=16	=16	=16	=16
1ryy	4.B-X^\	wiatr!	na-	Braust's,	.	.	1ryy	.	.	4.d^\	wiatr!	na-	.	.	.	.	1ryy	4.g#X^>/	wiatr!	na-	.	.	.	1ryy	.	.	4.ee^\	wiatr!	na-	Braust's,	.	.	.	.	.
.	8r	.	.	.	.	.	.	.	.	8r	.	.	.	.	.	.	.	8r	.	.	.	.	.	.	.	.	8r	.	.	.	.	.	.	.	.
.	4.B-^\	wiatr!	-sce_il	braust's,	.	.	.	.	.	4.d^\	wiatr!	-sce il	.	.	.	.	.	4.g#^>/	wiatr!	-sce_il	.	.	.	.	.	.	4.ee^\	wiatr!	-sce_il	braust's	.	.	.	.	.
.	8r	.	.	.	.	.	.	.	.	8r	.	.	.	.	.	.	.	8r	.	.	.	.	.	.	.	.	8r	.	.	.	.	.	.	.	.
!!LO:LB:g=original
=17	=17	=17	=17	=17	=17	=17	=17	=17	=17	=17	=17	=17	=17	=17	=17	=17	=17	=17	=17	=17	=17	=17	=17	=17	=17	=17	=17	=17	=17	=17	=17	=17	=17	=17	=17
1ryy	[2A\	wiatr!	ven-	braust's!	.	.	1ryy	.	.	[2c#X\	wiatr!	ven-	.	.	.	.	1ryy	[2a/	wiatr!	ven-	.	.	.	1ryy	.	.	[2aa [2ee\	wiatr!	ven-	braust's!	.	.	.	.	.
.	8A\]	.	-to!	.	.	.	.	.	.	8c#\]	.	-to!	.	.	.	.	.	8a/]	.	-to!	.	.	.	.	.	.	8aa] 8ee\]	.	-to!	.	.	.	.	.	.
.	8r	.	.	.	.	.	.	.	.	8r	.	.	.	.	.	.	.	8r	.	.	.	.	.	.	.	.	8r	.	.	.	.	.	.	.	.
.	4r	.	.	.	.	.	.	.	.	8r	.	.	.	.	.	.	.	4r	.	.	.	.	.	.	.	.	4r	.	.	.	.	.	.	.	.
!	!	!	!	!	!	!	!	!	!	!	!	!	!	!	!	!LO:DY:a:rj	!	!	!	!	!	!	!	!	!	!	!	!	!	!	!	!	!	!	!
.	.	.	.	.	.	.	.	.	.	8A/	Go-	All-	Ge-	.	.	ff	.	.	.	.	.	.	.	.	.	.	.	.	.	.	.	.	.	.	.
=18	=18	=18	=18	=18	=18	=18	=18	=18	=18	=18	=18	=18	=18	=18	=18	=18	=18	=18	=18	=18	=18	=18	=18	=18	=18	=18	=18	=18	=18	=18	=18	=18	=18	=18	=18
!	!	!	!	!	!	!	!	!	!	!LO:T:color=darkblue	!	!	!	!	!	!	!	!	!	!	!	!	!	!	!	!	!LO:TX:a:B:t=A:color=red	!	!	!	!	!	!	!	!
1ryy	2r	.	.	.	.	.	1ryy	.	.	[4f\	-tuj-	-er-	-schwind	.	.	.	1ryy	2r	.	.	.	.	.	1ryy	.	.	2r	.	.	.	.	.	.	.	.
.	.	.	.	.	.	.	.	.	.	8f\]	-cie	-ta	.	.	.	.	.	.	.	.	.	.	.	.	.	.	.	.	.	.	.	.	.	.	.
.	.	.	.	.	.	.	.	.	.	16r	.	.	.	.	.	.	.	.	.	.	.	.	.	.	.	.	.	.	.	.	.	.	.	.	.
.	.	.	.	.	.	.	.	.	.	16f\	się	fi-	ihr	.	.	.	.	.	.	.	.	.	.	.	.	.	.	.	.	.	.	.	.	.	.
.	4r	.	.	.	.	.	.	.	.	4f\	dzie-	-gliuo-	Jun-	.	.	.	.	4r	.	.	.	.	.	.	.	.	4r	.	.	.	.	.	.	.	.
.	8.r	.	.	.	.	.	.	.	.	8F/	-ci	-li	-gen!	.	.	.	.	8.r	.	.	.	.	.	.	.	.	8.r	.	.	.	.	.	.	.	.
.	.	.	.	.	.	.	.	.	.	16r	.	.	.	.	.	.	.	.	.	.	.	.	.	.	.	.	.	.	.	.	.	.	.	.	.
*	*	*	*	*	*	*	*	*	*	*	*	*	*	*	*	*	*	*	*	*	*	*	*	*	*	*	*	*	*color:auto	*color:auto	*color:darkblue	*	*	*	*
.	16d\	go-	fi-	Ge-	.	.	.	.	.	16f\	go-	fi-	.	.	.	.	.	16dd\	go-	fi-	.	.	.	.	.	.	16ff\	go-	[[all-	Fi-	Ge-	.	.	.	.
=19	=19	=19	=19	=19	=19	=19	=19	=19	=19	=19	=19	=19	=19	=19	=19	=19	=19	=19	=19	=19	=19	=19	=19	=19	=19	=19	=19	=19	=19	=19	=19	=19	=19	=19	=19
!	!LO:S:color=darkblue	!	!	!	!	!	!	!	!	!LO:S:color=darkblue	!	!	!	!	!	!	!	!LO:S:color=darkblue	!	!	!	!	!	!	!	!	!LO:S:color=darkblue	!	!	!	!	!	!	!	!
1ryy	(4d^\	-tuj-	-gliuol'	-schwind	.	.	1ryy	.	.	(4f^\	-tuj-	-gliuol'	.	.	.	.	1ryy	(4dd^\	-tuj-	-gliuol'	.	.	.	1ryy	.	.	(4ff^\	-tuj-	-er-	-gliuol'	-schwind	.	.	.	.
.	8c\)	-cie	pron-	.	.	.	.	.	.	8e\)	-cie	pron-	.	.	.	.	.	8cc\)	-cie	pron-	.	.	.	.	.	.	8ee\)	-cie	-ta	pron-	.	.	.	.	.
.	8B-X\	się	-ti	ihr	.	.	.	.	.	8d\	się	-ti	.	.	.	.	.	8b-X\	się	-ti	.	.	.	.	.	.	8dd\	się	fi-	-ti	ihr	.	.	.	.
.	8A\	dzie-	tut-	Jun-	.	.	.	.	.	8c\	dzie-	tut-	.	.	.	.	.	8a/	dzie-	tut-	.	.	.	.	.	.	8cc\	dzie-	-gliuo-	tut-	Jun-	.	.	.	.
.	8F\	-ci	-ti	-gen!	.	.	.	.	.	8c\	-ci	-ti	.	.	.	.	.	8a/	-ci	-ti	.	.	.	.	.	.	8ee\	-ci	-li]]	-ti!	-gen!	.	.	.	.
.	4r	.	.	.	.	.	.	.	.	4r	.	.	.	.	.	.	.	4r	.	.	.	.	.	.	.	.	4r	.	.	.	.	.	.	.	.
!!LO:PB:g=original
=20	=20	=20	=20	=20	=20	=20	=20	=20	=20	=20	=20	=20	=20	=20	=20	=20	=20	=20	=20	=20	=20	=20	=20	=20	=20	=20	=20	=20	=20	=20	=20	=20	=20	=20	=20
*	*	*	*	*	*	*	*	*	*	*	*	*	*	*	*	*	*	*	*	*	*	*	*	*	*	*	*	*	*color:auto	*color:darkblue	*	*	*	*	*
1ryy	4.d\	wiatr!	.	.	.	.	1ryy	.	.	4.f\	wiatr!	Si_al-	.	.	.	.	1ryy	4.bn\	wiatr!	Si_al-	.	.	.	1ryy	.	.	4.gg\	wiatr!	Si_al-	Braust's,	.	.	.	.	.
.	8r	.	.	.	.	.	.	.	.	8r	.	.	.	.	.	.	.	8r	.	.	.	.	.	.	.	.	8r	.	.	.	.	.	.	.	.
.	4.d\	wiatr!	.	.	.	.	.	.	.	4.f\	wiatr!	-za_il	.	.	.	.	.	4.b\	wiatr!	-za_il	.	.	.	.	.	.	4.gg\	wiatr!	-za_il	braust's	.	.	.	.	.
.	8r	.	.	.	.	.	.	.	.	8r	.	.	.	.	.	.	.	8r	.	.	.	.	.	.	.	.	8r	.	.	.	.	.	.	.	.
=21	=21	=21	=21	=21	=21	=21	=21	=21	=21	=21	=21	=21	=21	=21	=21	=21	=21	=21	=21	=21	=21	=21	=21	=21	=21	=21	=21	=21	=21	=21	=21	=21	=21	=21	=21
*	*^	*	*	*	*	*	*	*	*	*^	*	*	*	*	*	*	*	*^	*	*	*	*	*	*	*	*	*^	*	*	*	*	*	*	*	*
1ryy	8c/@	4c\	wiatr!	.	.	.	.	1ryy	.	.	8e/@	4e\	wiatr!	ven-	.	.	.	.	1ryy	8cc/@	4cc\	wiatr!	ven-	.	.	.	1ryy	.	.	8cc/@	4cc\	wiatr!	ven-	braust's!	.	.	.	.	.
.	8c/@	.	.	.	.	.	.	.	.	.	8e/@	.	.	-to!	.	.	.	.	.	8cc/@	.	.	-to	.	.	.	.	.	.	8cc/@	.	.	-to!	.	.	.	.	.	.
.	4r	4ryy	.	.	.	.	.	.	.	.	4r	4ryy	.	.	.	.	.	.	.	4r	2ryy	.	.	.	.	.	.	.	.	4r	4ryy	.	.	.	.	.	.	.	.
.	4r	2ryy	.	.	.	.	.	.	.	.	4r	2ryy	.	.	.	.	.	.	.	4r	.	.	.	.	.	.	.	.	.	4r	2ryy	.	.	.	.	.	.	.	.
.	8.r	.	.	.	.	.	.	.	.	.	8.r	.	.	.	.	.	.	.	.	8.r	4ryy	.	.	.	.	.	.	.	.	8.r	.	.	.	.	.	.	.	.	.
.	16E\	.	go-	.	.	.	.	.	.	.	16e\	.	go-	all'-	.	.	.	.	.	16e/	.	go-	All'-	.	.	.	.	.	.	16ee\	.	go-	All'-	Ge-	.	.	.	.	.
*	*v	*v	*	*	*	*	*	*	*	*	*v	*v	*	*	*	*	*	*	*	*v	*v	*	*	*	*	*	*	*	*	*v	*v	*	*	*	*	*	*	*	*
=22	=22	=22	=22	=22	=22	=22	=22	=22	=22	=22	=22	=22	=22	=22	=22	=22	=22	=22	=22	=22	=22	=22	=22	=22	=22	=22	=22	=22	=22	=22	=22	=22	=22	=22	=22
!	!LO:S:color=darkblue	!	!	!	!	!	!	!	!	!LO:S:color=darkblue	!	!	!	!	!	!	!	!LO:S:color=darkblue	!	!	!	!	!	!	!	!	!LO:S:color=darkblue	!	!	!	!	!	!	!	!
1ryy	(4e\	-tuj-	.	.	.	.	1ryy	.	.	(4e\	-tuj-	-er-	.	.	.	.	1ryy	(4e/	-tuj-	-er-	.	.	.	1ryy	.	.	(4ee^\	-tuj-	-er-	-schwind	.	.	.	.	.
.	8c\)	-cie	.	.	.	.	.	.	.	8c\)	-cie	-ta	.	.	.	.	.	8c/)	-cie	-ta	.	.	.	.	.	.	8cc\)	-cie	-ta	.	.	.	.	.	.
.	8A\	się	.	.	.	.	.	.	.	8A/	się	fi-	.	.	.	.	.	8a/	się	fi-	.	.	.	.	.	.	8a/	się	fi-	ihr	.	.	.	.	.
.	8d\	dzie-	.	.	.	.	.	.	.	8f\	dzie-	-gliuo-	.	.	.	.	.	8a/	dzie-	-gliuo-	.	.	.	.	.	.	8ff\	dzie-	-gliuo-	Jun-	.	.	.	.	.
.	8A\	-ci,	.	.	.	.	.	.	.	8e\	-ci	-li	.	.	.	.	.	8a/	-ci,	-li	.	.	.	.	.	.	8ee\	-ci,	-li	-gen!	.	.	.	.	.
.	8.r	.	.	.	.	.	.	.	.	8.r	.	.	.	.	.	.	.	8.r	.	.	.	.	.	.	.	.	8.r	.	.	.	.	.	.	.	.
.	16A\	go-	.	.	.	.	.	.	.	16e\	go-	all'-	.	.	.	.	.	16e/	go-	all-	.	.	.	.	.	.	16ee\	go-	all'-	Ge-	.	.	.	.	.
!!LO:LB:g=original
=23	=23	=23	=23	=23	=23	=23	=23	=23	=23	=23	=23	=23	=23	=23	=23	=23	=23	=23	=23	=23	=23	=23	=23	=23	=23	=23	=23	=23	=23	=23	=23	=23	=23	=23	=23
!	!	!	!	!	!	!	!	!	!	!	!	!	!	!	!	!	!	!	!	!	!	!	!	!	!	!	!LO:S:color=darkblue	!	!	!	!	!	!	!	!
1ryy	4A^\	-tuj-	.	.	.	.	1ryy	.	.	4e^\	-tuj-	-er-	.	.	.	.	1ryy	4cc^\	-tuj-	-er-	.	.	.	1ryy	.	.	(4aa 4ee^\	-tuj-	-er-	-schwind	.	.	.	.	.
.	8A\	-cie	.	.	.	.	.	.	.	8c\	-cie	-ta	.	.	.	.	.	8a/	-cie	-ta	.	.	.	.	.	.	8ee\)	-cie	-ta	.	.	.	.	.	.
.	8A\	się	.	.	.	.	.	.	.	8A/	się	fi-	.	.	.	.	.	8a/	się	fi-	.	.	.	.	.	.	8cc\	się	fi-	ihr	.	.	.	.	.
.	8D\	dzie-	.	.	.	.	.	.	.	8A/	dzie-	-gliuo-	.	.	.	.	.	8f/	dzie-	-gliuo-	.	.	.	.	.	.	8dd\	dzie-	-gliuo-	Jun-	.	.	.	.	.
.	8A\	-ci,	.	.	.	.	.	.	.	8A/	-ci	-li	.	.	.	.	.	8e/	-ci	-li	.	.	.	.	.	.	8cc\	-ci	-li	-gen!	.	.	.	.	.
.	4r	.	.	.	.	.	.	.	.	4r	.	.	.	.	.	.	.	4r	.	.	.	.	.	.	.	.	4r	.	.	.	.	.	.	.	.
=24	=24	=24	=24	=24	=24	=24	=24	=24	=24	=24	=24	=24	=24	=24	=24	=24	=24	=24	=24	=24	=24	=24	=24	=24	=24	=24	=24	=24	=24	=24	=24	=24	=24	=24	=24
!	!	!	!	!	!	!	!LO:N:vis=4.	!	!	!	!	!	!	!	!	!	!	!	!	!	!	!	!	!	!	!	!	!	!	!	!	!	!	!	!
1ryy	1r	.	.	.	.	.	4r	.	.	4r	.	.	.	.	.	.	1ryy	1r	.	.	.	.	.	1ryy	.	.	1r	.	.	.	.	.	.	.	.
*	*	*	*	*	*	*	*	*	*	*	*	*	*color:auto	*	*	*	*	*	*	*	*	*	*	*	*	*	*	*	*	*	*	*	*	*	*
.	.	.	.	.	.	.	4c\	Hoch	.	4c^\	wbiegł,	[[Il	Il	.	.	.	.	.	.	.	.	.	.	.	.	.	.	.	.	.	.	.	.	.	.
.	.	.	.	.	.	.	4r	.	.	4r	.	.	.	.	.	.	.	.	.	.	.	.	.	.	.	.	.	.	.	.	.	.	.	.	.
.	.	.	.	.	.	.	8c\	zwi-	.	4c^\	roz-	mari-	pi-	.	.	.	.	.	.	.	.	.	.	.	.	.	.	.	.	.	.	.	.	.	.
.	.	.	.	.	.	.	8c\	-schen	.	.	.	.	.	.	.	.	.	.	.	.	.	.	.	.	.	.	.	.	.	.	.	.	.	.	.
=25	=25	=25	=25	=25	=25	=25	=25	=25	=25	=25	=25	=25	=25	=25	=25	=25	=25	=25	=25	=25	=25	=25	=25	=25	=25	=25	=25	=25	=25	=25	=25	=25	=25	=25	=25
*	*	*	*	*	*	*	*	*	*	*^	*	*	*	*	*	*	*	*	*	*	*	*	*	*	*	*	*	*	*	*	*	*	*	*	*
*	*	*	*	*	*	*	*	*	*	*	*^	*	*	*	*	*	*	*	*	*	*	*	*	*	*	*	*	*	*	*	*	*	*	*	*	*
1ryy	1r	.	.	.	.	.	4..f\	straf-	.	4..f^\	2ryy	2ryy	-cią-	-ner	-lo-	.	.	.	1ryy	1r	.	.	.	.	.	1ryy	.	.	1r	.	.	.	.	.	.	.	.
.	.	.	.	.	.	.	16F/	-fe	.	16F/	.	.	-gnął	in]]	-ta_in	.	.	.	.	.	.	.	.	.	.	.	.	.	.	.	.	.	.	.	.	.	.
!	!	!	!	!	!	!	!LO:TUP:a:problem=klamra łukowa	!	!	!	!	!	!	!	!	!	!	!	!	!	!	!	!	!	!	!	!	!	!	!	!	!	!	!	!	!	!
.	.	.	.	.	.	.	12F/	Ta-	.	8F\§	4F/	8F/@	się	u-	.	.	.	.	.	.	.	.	.	.	.	.	.	.	.	.	.	.	.	.	.	.	.
.	.	.	.	.	.	.	12F/	-ue	.	.	.	.	.	.	.	.	.	.	.	.	.	.	.	.	.	.	.	.	.	.	.	.	.	.	.	.	.
.	.	.	.	.	.	.	.	.	.	8F\§	.	8F/@	.	-na	.	.	.	.	.	.	.	.	.	.	.	.	.	.	.	.	.	.	.	.	.	.	.
.	.	.	.	.	.	.	12F/	ist	.	.	.	.	.	.	.	.	.	.	.	.	.	.	.	.	.	.	.	.	.	.	.	.	.	.	.	.	.
.	.	.	.	.	.	.	8A/	keck	.	8A/	4ryy	4ryy	w_nie-	re-	.	.	.	.	.	.	.	.	.	.	.	.	.	.	.	.	.	.	.	.	.	.	.
.	.	.	.	.	.	.	8A/	er	.	8A/	.	.	-wi-	-te]]	.	.	.	.	.	.	.	.	.	.	.	.	.	.	.	.	.	.	.	.	.	.	.
*	*	*	*	*	*	*	*	*	*	*	*v	*v	*	*	*	*	*	*	*	*	*	*	*	*	*	*	*	*	*	*	*	*	*	*	*	*	*
*	*	*	*	*	*	*	*	*	*	*v	*v	*	*	*	*	*	*	*	*	*	*	*	*	*	*	*	*	*	*	*	*	*	*	*	*	*
!!LO:PB:g=original
=26	=26	=26	=26	=26	=26	=26	=26	=26	=26	=26	=26	=26	=26	=26	=26	=26	=26	=26	=26	=26	=26	=26	=26	=26	=26	=26	=26	=26	=26	=26	=26	=26	=26	=26	=26
1ryy	1r	.	.	.	.	.	1ryy	.	.	4.A/	-dzial-	Si	ein-	.	.	.	1ryy	1r	.	.	.	.	.	1ryy	.	.	4r	.	.	.	.	.	.	.	.
.	.	.	.	.	.	.	.	.	.	.	.	.	.	.	.	.	.	.	.	.	.	.	.	.	.	.	4a/	wbiegł	Si	Hoch!	.	.	.	.	.
.	.	.	.	.	.	.	.	.	.	8A/	-nej	sos-	-ge-	.	.	.	.	.	.	.	.	.	.	.	.	.	.	.	.	.	.	.	.	.	.
.	.	.	.	.	.	.	.	.	.	4e\	sie-	-pen-	-drun-	.	.	.	.	.	.	.	.	.	.	.	.	.	4r	.	.	.	.	.	.	.	.
.	.	.	.	.	.	.	.	.	.	8A/	-ci	-de	-gen	.	.	.	.	.	.	.	.	.	.	.	.	.	4a/	roz-	sos-	Der	.	.	.	.	.
.	.	.	.	.	.	.	.	.	.	8r	.	.	.	.	.	.	.	.	.	.	.	.	.	.	.	.	.	.	.	.	.	.	.	.	.
=27	=27	=27	=27	=27	=27	=27	=27	=27	=27	=27	=27	=27	=27	=27	=27	=27	=27	=27	=27	=27	=27	=27	=27	=27	=27	=27	=27	=27	=27	=27	=27	=27	=27	=27	=27
!	!	!	!	!	!	!	!	!	!	!	!	!	!	!	!	!	!	!	!	!	!	!	!	!	!	!	!LO:S:color=red	!	!	!	!	!	!	!	!
1ryy	4r	.	.	.	.	.	1ryy	.	.	1r	.	.	.	.	.	.	1ryy	1r	.	.	.	.	.	1ryy	.	.	(4..dd\	-cią-	-pen-	Spin-	.	.	.	.	.
.	8.r	.	.	.	.	.	.	.	.	.	.	.	.	.	.	.	.	.	.	.	.	.	.	.	.	.	.	.	.	.	.	.	.	.	.
*	*	*	*	*color:darkblue	*	*	*	*	*	*	*	*	*	*	*	*	*	*	*	*	*	*	*	*	*	*	*	*	*	*	*	*	*	*	*
.	16F\	i	A	Der	.	.	.	.	.	.	.	.	.	.	.	.	.	.	.	.	.	.	.	.	.	.	16d/)	-gnął	.	-ne	.	.	.	.	.
.	4.A\	za-	u-	Spin-	.	.	.	.	.	.	.	.	.	.	.	.	.	.	.	.	.	.	.	.	.	.	4d/	się	-de	gleich,	.	.	.	.	.
.	.	.	.	.	.	.	.	.	.	.	.	.	.	.	.	.	.	.	.	.	.	.	.	.	.	.	4r	.	.	.	.	.	.	.	.
.	8A\	-wisł	-na	-ne	.	.	.	.	.	.	.	.	.	.	.	.	.	.	.	.	.	.	.	.	.	.	.	.	.	.	.	.	.	.	.
=28	=28	=28	=28	=28	=28	=28	=28	=28	=28	=28	=28	=28	=28	=28	=28	=28	=28	=28	=28	=28	=28	=28	=28	=28	=28	=28	=28	=28	=28	=28	=28	=28	=28	=28	=28
1ryy	4.B-X^\	w_nie-	re-	gleich,	.	.	1ryy	.	.	1r	.	.	.	.	.	.	1ryy	1r	.	.	.	.	.	1ryy	.	.	1r	.	.	.	.	.	.	.	.
.	8A\	-wi-	-te	der	.	.	.	.	.	.	.	.	.	.	.	.	.	.	.	.	.	.	.	.	.	.	.	.	.	.	.	.	.	.	.
.	4.B-^\	-dzial-	si	Spin-	.	.	.	.	.	.	.	.	.	.	.	.	.	.	.	.	.	.	.	.	.	.	.	.	.	.	.	.	.	.	.
.	8A\	-nej	sos-	-ne	.	.	.	.	.	.	.	.	.	.	.	.	.	.	.	.	.	.	.	.	.	.	.	.	.	.	.	.	.	.	.
!!LO:LB:g=original
=29	=29	=29	=29	=29	=29	=29	=29	=29	=29	=29	=29	=29	=29	=29	=29	=29	=29	=29	=29	=29	=29	=29	=29	=29	=29	=29	=29	=29	=29	=29	=29	=29	=29	=29	=29
1ryy	8.B-X^\L	sie-	-pen-	gleich	.	.	1ryy	.	.	1r	.	.	.	.	.	.	1ryy	1r	.	.	.	.	.	1ryy	.	.	1r	.	.	.	.	.	.	.	.
.	16A\K	.	-de	.	.	.	.	.	.	.	.	.	.	.	.	.	.	.	.	.	.	.	.	.	.	.	.	.	.	.	.	.	.	.	.
.	8.G#X\J	-ci	de-	.	.	.	.	.	.	.	.	.	.	.	.	.	.	.	.	.	.	.	.	.	.	.	.	.	.	.	.	.	.	.	.
.	16A\	jak	-me	der	.	.	.	.	.	.	.	.	.	.	.	.	.	.	.	.	.	.	.	.	.	.	.	.	.	.	.	.	.	.	.
!	!LO:S:color=darkblue	!	!	!	!	!	!	!	!	!	!	!	!	!	!	!	!	!	!	!	!	!	!	!	!	!	!	!	!	!	!	!	!	!	!
.	(8.B-^\	pa-	nel-	Spin-	.	.	.	.	.	.	.	.	.	.	.	.	.	.	.	.	.	.	.	.	.	.	.	.	.	.	.	.	.	.	.
.	16A\)	-jąk	-la	.	.	.	.	.	.	.	.	.	.	.	.	.	.	.	.	.	.	.	.	.	.	.	.	.	.	.	.	.	.	.	.
.	8.G#\	cza-	su-	-ne,	.	.	.	.	.	.	.	.	.	.	.	.	.	.	.	.	.	.	.	.	.	.	.	.	.	.	.	.	.	.	.
.	16A\	-tu-	-a	die	.	.	.	.	.	.	.	.	.	.	.	.	.	.	.	.	.	.	.	.	.	.	.	.	.	.	.	.	.	.	.
=30	=30	=30	=30	=30	=30	=30	=30	=30	=30	=30	=30	=30	=30	=30	=30	=30	=30	=30	=30	=30	=30	=30	=30	=30	=30	=30	=30	=30	=30	=30	=30	=30	=30	=30	=30
*	*^	*	*	*	*	*	*	*	*	*	*	*	*	*	*	*	*	*	*	*	*	*	*	*	*	*	*	*	*	*	*	*	*	*	*
1ryy	(4d^\	2ryy	-ją-	te	lau-	.	.	1ryy	.	.	1r	.	.	.	.	.	.	1ryy	1r	.	.	.	.	.	1ryy	.	.	1r	.	.	.	.	.	.	.	.
.	8c#X\)	.	.	la	-ert,	.	.	.	.	.	.	.	.	.	.	.	.	.	.	.	.	.	.	.	.	.	.	.	.	.	.	.	.	.	.	.
.	8cn\	.	-cy	ie	ob	.	.	.	.	.	.	.	.	.	.	.	.	.	.	.	.	.	.	.	.	.	.	.	.	.	.	.	.	.	.	.
!	!	!LO:TX:t=P:stem.color=red:problem	!	!	!	!	!	!	!	!	!	!	!	!	!	!	!	!	!	!	!	!	!	!	!	!	!	!	!	!	!	!	!	!	!	!
.	8Bn\	8Bn/L	na	ra-	was	.	.	.	.	.	.	.	.	.	.	.	.	.	.	.	.	.	.	.	.	.	.	.	.	.	.	.	.	.	.	.
.	8B-X\	8B-/J	ski-	.	in's	.	.	.	.	.	.	.	.	.	.	.	.	.	.	.	.	.	.	.	.	.	.	.	.	.	.	.	.	.	.	.
.	8A\	4ryy	-nie-	-gno	Netz	.	.	.	.	.	.	.	.	.	.	.	.	.	.	.	.	.	.	.	.	.	.	.	.	.	.	.	.	.	.	.
.	8A-X\	.	-nie	at-	ge-	.	.	.	.	.	.	.	.	.	.	.	.	.	.	.	.	.	.	.	.	.	.	.	.	.	.	.	.	.	.	.
*	*v	*v	*	*	*	*	*	*	*	*	*	*	*	*	*	*	*	*	*	*	*	*	*	*	*	*	*	*	*	*	*	*	*	*	*	*
=31	=31	=31	=31	=31	=31	=31	=31	=31	=31	=31	=31	=31	=31	=31	=31	=31	=31	=31	=31	=31	=31	=31	=31	=31	=31	=31	=31	=31	=31	=31	=31	=31	=31	=31	=31
*	*	*	*	*	*	*	*	*	*	*	*	*	*	*	*	*	*	*	*	*	*	*	*	*	*	*	*	*	*	*color:auto	*	*	*	*	*
!	!	!	!	!	!	!	!	!	!	!	!	!	!	!	!	!	!	!	!	!	!	!	!	!	!	!	!LO:TX:a:B:t=E:color=red:rj	!	!	!	!	!	!	!	!
1ryy	4G\	si-	-ten-	-fla-	.	.	1ryy	.	.	1r	.	.	.	.	.	.	1ryy	2r	.	.	.	.	.	1ryy	.	.	[1g^>	wiatr!	Si_al-	[[Braust's]]	Sturm!	.	.	.	.
.	4G\	-dła	-de	-gen.	.	.	.	.	.	.	.	.	.	.	.	.	.	.	.	.	.	.	.	.	.	.	.	.	.	.	.	.	.	.	.
*	*	*	*	*	*	*	*	*	*	*	*	*	*	*	*	*	*	*	*	*	*color:auto	*color:darkblue	*	*	*	*	*	*	*	*	*	*	*	*	*
.	2r	.	.	.	.	.	.	.	.	.	.	.	.	.	.	.	.	[2g^>/	wiatr!	Si_al-	[[Braust's]]	Sturm!	.	.	.	.	.	.	.	.	.	.	.	.	.
!!LO:PB:g=original
=32	=32	=32	=32	=32	=32	=32	=32	=32	=32	=32	=32	=32	=32	=32	=32	=32	=32	=32	=32	=32	=32	=32	=32	=32	=32	=32	=32	=32	=32	=32	=32	=32	=32	=32	=32
*	*	*	*	*	*	*	*	*	*	*	*	*	*	*	*color:darkblue	*	*	*	*	*	*	*	*	*	*	*	*	*	*	*	*	*	*	*	*
1ryy	1r	.	.	.	.	.	1ryy	.	.	[1f^	wiatr	ven-	Si_al-	[[Braust's	Sturm!	.	1ryy	2.g/]	.	-za_il	.	.	.	1ryy	.	.	8g/]	.	-za_il	.	.	.	.	.	.
.	.	.	.	.	.	.	.	.	.	.	.	.	.	.	.	.	.	.	.	.	.	.	.	.	.	.	8r	.	.	.	.	.	.	.	.
.	.	.	.	.	.	.	.	.	.	.	.	.	.	.	.	.	.	.	.	.	.	.	.	.	.	.	4r	.	.	.	.	.	.	.	.
.	.	.	.	.	.	.	.	.	.	.	.	.	.	.	.	.	.	.	.	.	.	.	.	.	.	.	2r	.	.	.	.	.	.	.	.
.	.	.	.	.	.	.	.	.	.	.	.	.	.	.	.	.	.	4r	.	.	.	.	.	.	.	.	.	.	.	.	.	.	.	.	.
=33	=33	=33	=33	=33	=33	=33	=33	=33	=33	=33	=33	=33	=33	=33	=33	=33	=33	=33	=33	=33	=33	=33	=33	=33	=33	=33	=33	=33	=33	=33	=33	=33	=33	=33	=33
1ryy	1r	.	.	.	.	.	1ryy	.	.	8f\]	.	-to	-za_il	.	.	.	1ryy	2r	.	.	.	.	.	1ryy	.	.	[1dd^	wiatr!	ven-	[[braust's]]	sturm!	.	.	.	.
.	.	.	.	.	.	.	.	.	.	8r	.	.	.	.	.	.	.	.	.	.	.	.	.	.	.	.	.	.	.	.	.	.	.	.	.
.	.	.	.	.	.	.	.	.	.	4r	.	.	.	.	.	.	.	.	.	.	.	.	.	.	.	.	.	.	.	.	.	.	.	.	.
.	.	.	.	.	.	.	.	.	.	2r	.	.	.	.	.	.	.	[2g^>/	wiatr	ven-	[[braust's]]	Sturm!	.	.	.	.	.	.	.	.	.	.	.	.	.
=34	=34	=34	=34	=34	=34	=34	=34	=34	=34	=34	=34	=34	=34	=34	=34	=34	=34	=34	=34	=34	=34	=34	=34	=34	=34	=34	=34	=34	=34	=34	=34	=34	=34	=34	=34
1ryy	1r	.	.	.	.	.	1ryy	.	.	[1f^	wiatr	si_al-	ven-	[[braust's!]]	Sturm!	.	1ryy	2.g/]	.	-to	.	.	.	1ryy	.	.	8dd\]	.	-to!	.	.	.	.	.	.
.	.	.	.	.	.	.	.	.	.	.	.	.	.	.	.	.	.	.	.	.	.	.	.	.	.	.	8r	.	.	.	.	.	.	.	.
.	.	.	.	.	.	.	.	.	.	.	.	.	.	.	.	.	.	.	.	.	.	.	.	.	.	.	4r	.	.	.	.	.	.	.	.
.	.	.	.	.	.	.	.	.	.	.	.	.	.	.	.	.	.	.	.	.	.	.	.	.	.	.	2r	.	.	.	.	.	.	.	.
.	.	.	.	.	.	.	.	.	.	.	.	.	.	.	.	.	.	4r	.	.	.	.	.	.	.	.	.	.	.	.	.	.	.	.	.
=35	=35	=35	=35	=35	=35	=35	=35	=35	=35	=35	=35	=35	=35	=35	=35	=35	=35	=35	=35	=35	=35	=35	=35	=35	=35	=35	=35	=35	=35	=35	=35	=35	=35	=35	=35
*	*	*	*	*	*	*	*	*	*	*	*	*	*	*	*	*	*	*	*	*	*	*color:darkblue	*	*	*	*	*	*	*	*color:grey	*	*color:darkblue	*	*	*
1ryy	1r	.	.	.	.	.	1ryy	.	.	8f\]	.	-za_il	-to!	.	.	.	1ryy	2r	.	.	.	.	.	1ryy	.	.	[1ff [1dd^	wiatr	[[si_al-	ven-	[[braust's]]	sturm!	.	.	.
.	.	.	.	.	.	.	.	.	.	8r	.	.	.	.	.	.	.	.	.	.	.	.	.	.	.	.	.	.	.	.	.	.	.	.	.
.	.	.	.	.	.	.	.	.	.	4r	.	.	.	.	.	.	.	.	.	.	.	.	.	.	.	.	.	.	.	.	.	.	.	.	.
.	.	.	.	.	.	.	.	.	.	2r	.	.	.	.	.	.	.	[2g^>/	wiatr	[[si_al-	[[braust's]]	Sturm!	.	.	.	.	.	.	.	.	.	.	.	.	.
=36	=36	=36	=36	=36	=36	=36	=36	=36	=36	=36	=36	=36	=36	=36	=36	=36	=36	=36	=36	=36	=36	=36	=36	=36	=36	=36	=36	=36	=36	=36	=36	=36	=36	=36	=36
*	*	*	*	*	*	*	*	*	*	*^	*	*	*	*	*	*	*	*	*	*	*	*	*	*	*	*	*	*	*	*	*	*	*	*	*
1ryy	1r	.	.	.	.	.	1ryy	.	.	2g/§	2.g^>\	wiatr	ven-	.	[[braust's!]]	Sturm!	.	1ryy	2.g/]	.	-za_il]]	.	.	.	1ryy	.	.	8ff] 8dd\]	.	-za_il]]	-to	.	.	.	.	.
.	.	.	.	.	.	.	.	.	.	.	.	.	.	.	.	.	.	.	.	.	.	.	.	.	.	.	.	8r	.	.	.	.	.	.	.	.
.	.	.	.	.	.	.	.	.	.	.	.	.	.	.	.	.	.	.	.	.	.	.	.	.	.	.	.	4r	.	.	.	.	.	.	.	.
.	.	.	.	.	.	.	.	.	.	4g/§	.	.	-to	.	.	.	.	.	.	.	.	.	.	.	.	.	.	2r	.	.	.	.	.	.	.	.
.	.	.	.	.	.	.	.	.	.	4r	4r	.	.	.	.	.	.	.	4r	.	.	.	.	.	.	.	.	.	.	.	.	.	.	.	.	.
*	*	*	*	*	*	*	*	*	*	*v	*v	*	*	*	*	*	*	*	*	*	*	*	*	*	*	*	*	*	*	*	*	*	*	*	*	*
!!LO:LB:g=original
=37	=37	=37	=37	=37	=37	=37	=37	=37	=37	=37	=37	=37	=37	=37	=37	=37	=37	=37	=37	=37	=37	=37	=37	=37	=37	=37	=37	=37	=37	=37	=37	=37	=37	=37	=37
*	*	*	*color:grey	*color:auto	*	*	*	*	*	*	*	*color:grey	*color:auto	*	*	*	*	*	*	*color:grey	*color:auto	*	*	*	*	*	*	*	*color:grey	*color:auto	*	*	*	*	*
1ryy	4c^\	Dą-	Bal-	Bal-	.	.	1ryy	.	.	4e^\	Dą-	Bal-	Bal-	.	.	.	1ryy	4g^>/	Dą-	Bal-	Bal-	.	.	1ryy	.	.	4ee^\	Dą-	Bal-	Bal-	Die	.	.	.	.
.	8.F\	-sa	-za	-za	.	.	.	.	.	8.c\	-sa	-za	-za	.	.	.	.	8.a/	-sa	-za	-za	.	.	.	.	.	8.ff\	-sa	-za	-za	Se-	.	.	.	.
.	16G\	się	la	la	.	.	.	.	.	16B\	się	la	la	.	.	.	.	16g/	się	la	la	.	.	.	.	.	16dd\	się	la	la	-gel	.	.	.	.
.	4G\	o-	na-	na-	.	.	.	.	.	4B\	o-	na-	na-	.	.	.	.	4g/	o-	na-	na-	.	.	.	.	.	4dd\	o-	na-	na-	schwel-	.	.	.	.
.	8c\	-kręt	-ve	-ve	.	.	.	.	.	8c\	-kręt	-ve	-ve	.	.	.	.	8e/	-kręt	-ve	-ve	.	.	.	.	.	8ee\	-kręt	-ve	-ve	-len!	.	.	.	.
.	16r	.	.	.	.	.	.	.	.	16r	.	.	.	.	.	.	.	16r	.	.	.	.	.	.	.	.	16r	.	.	.	.	.	.	.	.
.	16d\	i	sui_ma-	sui	.	.	.	.	.	16d\	i	sui_ma-	sui	.	.	.	.	16f/	i	sui_ma-	sui	.	.	.	.	.	16dd\	i	Sui_ma	sui	fort	.	.	.	.
=38	=38	=38	=38	=38	=38	=38	=38	=38	=38	=38	=38	=38	=38	=38	=38	=38	=38	=38	=38	=38	=38	=38	=38	=38	=38	=38	=38	=38	=38	=38	=38	=38	=38	=38	=38
8d\	4d\	zry-	-lo-	fie-	.	.	8f\	.	.	4f\	zry-	-lo-	fie-	.	.	.	8a\	4a/	zry-	-lo	fie-	.	.	8dd\	jagt	.	4dd\	zry-	ro-	fie-	.	.	.	.	.
8d\	.	.	.	.	.	.	8f\	.	.	.	.	.	.	.	.	.	8a\	.	.	.	.	.	.	8dd\	das	.	.	.	.	.	.	.	.	.	.
8.G/	8.G\	-wa	-si	-ri	.	.	8.e\	.	.	8.e\	-wa	-si	-ri	.	.	.	8.g\	8.g/	-wa	si	-ri	.	.	8.b-X\	Schiff	.	8.b-X\	-wa	-si	-ri	.	.	.	.	.
16A/	16A\	z_wę-	Rom-	ma-	.	.	16c#X\	.	.	16c#X\	z_wę-	Ram-	ma-	.	.	.	16e\	16e/	z_wę-	Rom-	ma-	.	.	16a\	ent-	.	16a/	z_wę-	Rom-	ma-	.	.	.	.	.
8A/	8A\	-dzi-	-pe	-ro-	.	.	8c#\	.	.	8c#\	-dzi-	-pe	-ro-	.	.	.	8e\	8e/	-dzi-	-pe	-ro-	.	.	8a\	-zü-	.	8a/	-dzi-	-pe	-ro-	.	.	.	.	.
8D/	8D\	-dła	i_freni	-si	.	.	8d\	.	.	8d\	-dła	i_freni	-si	.	.	.	8f\	8f/	-dła	i_freni	-si	.	.	8f/	-gelt,	.	8f/	-dła	i_freni	-si	.	.	.	.	.
8.r	8.r	.	.	.	.	.	8.r	.	.	8.r	.	.	.	.	.	.	8.r	8.r	.	.	.	.	.	8.r	.	.	8.r	.	.	.	.	.	.	.	.
16d\	16d\	prze-	s'a-	Ric-	.	.	16f\	.	.	16f\	prze-	s'a-	Ric-	.	.	.	16a\	16a/	prze-	s'a-	Ric-	.	.	16ff\	Es	.	16ff\	prze-	s'a-	Ric-	.	.	.	.	.
=39	=39	=39	=39	=39	=39	=39	=39	=39	=39	=39	=39	=39	=39	=39	=39	=39	=39	=39	=39	=39	=39	=39	=39	=39	=39	=39	=39	=39	=39	=39	=39	=39	=39	=39	=39
4d\	4d^\	-wa-	-da-	-car-	.	.	4f\	.	.	4f^\	-wa-	-da-	-cad-	.	.	.	4a/	4a^>/	-wa-	-da-	-cad-	.	.	4ff\	neigt	.	4ff^\	-wa-	-da-	-cad-	.	.	.	.	.
8G/	8G\	-la	-gia	-de	.	.	8d\	.	.	8d\	-la	-gia	-de	.	.	.	8b/	8b-X/	-la	-gia	-de	.	.	8gg\	sich	.	8gg\	-la	-gia	-de	.	.	.	.	.
16r	16r	.	.	.	.	.	16r	.	.	16r	.	.	.	.	.	.	16r	16r	.	.	.	.	.	16r	.	.	16r	.	.	.	.	.	.	.	.
32A/	16A\	nur-	s'a-	fre-	.	.	32c#X/	.	.	16c#X\	nur-	s'a-	fre-	.	.	.	32a/	16a/	nur-	s'a-	fre-	.	.	32ee\	jäh-	.	16ee\	nur-	s'a-	fre-	.	.	.	.	.
32A/	.	.	.	.	.	.	32c#/	.	.	.	.	.	.	.	.	.	32a/	.	.	.	.	.	.	32ee\	-lings	.	.	.	.	.	.	.	.	.	.
4A/	4A\	-ku-	-da-	-men-	.	.	4c#/	.	.	4c#\	-ku-	-da-	-men-	.	.	.	4a/	4a/	-ku-	-da-	-men-	.	.	4ee\	seit-	.	4ee\	-ku-	-da-	-men-	.	.	.	.	.
8A/	8A\	-je	-gia	-te	.	.	8d/	.	.	8d\	-je	-gia	-te	.	.	.	8a/	8a/	-je	-gia	-te	.	.	8ff\	wärts,	.	8ff\	-je	-gia	-te	.	.	.	.	.
16r	16r	.	.	.	.	.	16r	.	.	16r	.	.	.	.	.	.	16r	16r	.	.	.	.	.	16r	.	.	16r	.	.	.	.	.	.	.	.
16Bn/	16Bn\	w_pie-	nei	sui	.	.	16e\	.	.	16e\	w_pie-	nei	sui	.	.	.	16g#X\	16g#X/	w_pie-	nei	sui	.	.	16ee\	es	.	16ee\	w_pie-	nei	sui	.	.	.	.	.
!!LO:PB:g=original
=40	=40	=40	=40	=40	=40	=40	=40	=40	=40	=40	=40	=40	=40	=40	=40	=40	=40	=40	=40	=40	=40	=40	=40	=40	=40	=40	=40	=40	=40	=40	=40	=40	=40	=40	=40
8B/	4B\	-ni-	vor	flut-	.	.	8e/	flut-	.	4e\	-nis-	vor	.	.	.	.	8g#X/	4g#X/	-ni-	vor-	.	.	.	8ee\	flut-	taucht	4ee\	-ni-	vor-	.	.	.	.	.	.
8B/	.	.	.	.	.	.	8e/	-ti	.	.	.	.	.	.	.	.	8g#/	.	.	.	.	.	.	8ee\	-ti	in	.	.	.	.	.	.	.	.	.
8.A/	8.A\	-stej	lei	-ti	.	.	8.e/	sel-	.	8.e\	-tej	lei	.	.	.	.	8.a/	8.a/	-stej	-lei	.	.	.	8.cc/	le-	Schau-	8.cc\	-stej	-li	.	.	.	.	.	.
16B/	16B\	za-	schiu-	schiu-	.	.	16d#X/	-ciu	.	16d#X\	za-	schiu-	.	.	.	.	16f#X/	16f#X/	za-	schiu-	.	.	.	16bn/	-hiu-	-mes-	16bn\	za-	schiu-	.	.	.	.	.	.
8B/	8B\	-mie-	-mo-	-mo-	.	.	8d#/	mo-	.	8d#\	-mie-	-mo-	.	.	.	.	8f#\	8f#/	-mie-	-mo-	.	.	.	8b/	-mo-	-wel-	8b\	-mie-	-mo-	.	.	.	.	.	.
8E/	8E\	-ci	-si	-si	.	.	8e/	-si	.	8e\	-ci	-si	.	.	.	.	8gn\	8gn/	-ci	-si	.	.	.	8g/	-si	-len,	8g/	-ci	-si	.	.	.	.	.	.
8.r	8.r	.	.	.	.	.	8.r	.	.	8.r	.	.	.	.	.	.	4r	4r	.	.	.	.	.	4r	.	.	4r	.	.	.	.	.	.	.	.
*	*	*	*	*	*	*	*	*	*	*	*	*	*above	*	*	*	*	*	*	*	*	*	*	*	*	*	*	*	*	*	*	*	*	*	*
!	!	!	!	!	!	!	!	!	!	!	!	!	!	!	!	!LO:DY:a	!	!	!	!	!	!	!	!	!	!	!	!	!	!	!	!	!	!	!
16E\	16E\	po-	Le	Il	.	p	16G/	Es	.	16G/	po-	Le-	Il	.	.	p	.	.	.	.	.	.	.	.	.	.	.	.	.	.	.	.	.	.	.
=41	=41	=41	=41	=41	=41	=41	=41	=41	=41	=41	=41	=41	=41	=41	=41	=41	=41	=41	=41	=41	=41	=41	=41	=41	=41	=41	=41	=41	=41	=41	=41	=41	=41	=41	=41
!	!	!	!	!	!	!	!	!	!	!	!	!	!	!	!	!	!	!	!	!	!	!	!	!	!	!	!LO:TX:a:B:t=J:color=red	!	!	!	!	!	!	!	!
1ryy	4..E\	-dep-	va	ca-	.	.	1ryy	.	.	4..G/	-dep-	-va il	ca-	.	.	.	1ryy	1r	.	.	.	.	.	1ryy	.	.	1r	.	.	.	.	.	.	.	.
.	16G\	-tał	il	-po	.	.	.	.	.	16e\	-tał	cal-	-po	.	.	.	.	.	.	.	.	.	.	.	.	.	.	.	.	.	.	.	.	.	.
.	4..G\	fa-	collo e	le-	.	.	.	.	.	4..e\	fa-	-lo e	le-	.	.	.	.	.	.	.	.	.	.	.	.	.	.	.	.	.	.	.	.	.	.
.	16F\	-le	sui	-va	.	.	.	.	.	16d\	-lo	sui	-va	.	.	.	.	.	.	.	.	.	.	.	.	.	.	.	.	.	.	.	.	.	.
=42	=42	=42	=42	=42	=42	=42	=42	=42	=42	=42	=42	=42	=42	=42	=42	=42	=42	=42	=42	=42	=42	=42	=42	=42	=42	=42	=42	=42	=42	=42	=42	=42	=42	=42	=42
!	!LO:S:color=darkblue	!	!	!	!	!	!	!	!	!LO:S:color=darkblue	!	!	!	!	!	!	!	!	!	!	!	!	!	!	!	!	!	!	!	!	!	!	!	!	!
1ryy	(8.E\	i	flut-	fin	.	.	1ryy	.	.	(8.c\	i	flut-	fin	.	.	.	1ryy	1r	.	.	.	.	.	1ryy	.	.	1r	.	.	.	.	.	.	.	.
.	16D\)	skroś	.	al	.	.	.	.	.	16B\)	skroś	-ti	al	.	.	.	.	.	.	.	.	.	.	.	.	.	.	.	.	.	.	.	.	.	.
.	8.E\	nie-	-ti	ciel	.	.	.	.	.	8.c\	nie-	fin	ciel	.	.	.	.	.	.	.	.	.	.	.	.	.	.	.	.	.	.	.	.	.	.
.	16E\	-bios	fin al	si	.	.	.	.	.	16c#X\	-bios	al-	si	.	.	.	.	.	.	.	.	.	.	.	.	.	.	.	.	.	.	.	.	.	.
!	!LO:S:color=darkblue	!	!	!	!	!	!	!	!	!LO:S:color=darkblue	!	!	!	!	!	!	!	!	!	!	!	!	!	!	!	!	!	!	!	!	!	!	!	!	!
.	(4F\	le-	ciel	spin-	.	.	.	.	.	(4d\	le-	-ciel	spin-	.	.	.	.	.	.	.	.	.	.	.	.	.	.	.	.	.	.	.	.	.	.
.	8G\)	-ci	si	-ge	.	.	.	.	.	8G/)	-ci	si	-gi	.	.	.	.	.	.	.	.	.	.	.	.	.	.	.	.	.	.	.	.	.	.
.	16r	.	.	.	.	.	.	.	.	16r	.	.	.	.	.	.	.	.	.	.	.	.	.	.	.	.	.	.	.	.	.	.	.	.	.
.	16G\	o-	spirse	E_il	.	.	.	.	.	16G/	o-	spinge tan	E_il	.	.	.	.	.	.	.	.	.	.	.	.	.	.	.	.	.	.	.	.	.	.
!!LO:LB:g=original
=43	=43	=43	=43	=43	=43	=43	=43	=43	=43	=43	=43	=43	=43	=43	=43	=43	=43	=43	=43	=43	=43	=43	=43	=43	=43	=43	=43	=43	=43	=43	=43	=43	=43	=43	=43
4..G/	4..G\	-bło-	de-	ven	.	.	4..G/	Him-	.	4..G/	-bło-	de	ven-	.	.	.	1ryy	1r	.	.	.	.	.	1ryy	.	.	1r	.	.	.	.	.	.	.	.
16G/	16G\	-ki	-li	-to	.	.	16e\	-mel	.	16e\	-ki	la	-to	.	.	.	.	.	.	.	.	.	.	.	.	.	.	.	.	.	.	.	.	.	.
4G/	4..G\	sie-	nul-	nel-	.	.	4g 4e\	schnel-	.	4..g 4..e\	sie-	nel	nel-	.	.	.	.	.	.	.	.	.	.	.	.	.	.	.	.	.	.	.	.	.	.
8.G/	.	.	.	.	.	.	8.g 8.e\	-len,	.	.	.	.	.	.	.	.	.	.	.	.	.	.	.	.	.	.	.	.	.	.	.	.	.	.	.
16G/	16G\	-ka	-e il	-le	.	.	16f 16d\	Bald	.	16f 16d\	-ką	e_il	-le	.	.	.	.	.	.	.	.	.	.	.	.	.	.	.	.	.	.	.	.	.	.
=44	=44	=44	=44	=44	=44	=44	=44	=44	=44	=44	=44	=44	=44	=44	=44	=44	=44	=44	=44	=44	=44	=44	=44	=44	=44	=44	=44	=44	=44	=44	=44	=44	=44	=44	=44
1ryy	8.G\	chwy-	vento	gran-	.	.	1ryy	.	.	8.e 8.c\	chwy-	vento	gran-	streift	.	.	1ryy	2r	.	.	.	.	.	1ryy	.	.	2r	.	.	.	.	.	.	.	.
.	16G\	-ta	nel-	-di	.	.	.	.	.	16d 16B\	-ta	nel	-di	es	.	.	.	.	.	.	.	.	.	.	.	.	.	.	.	.	.	.	.	.	.
.	8.G\	wiatr	-le_gran-	a-	.	.	.	.	.	8.e 8.c\	wiatr	le_gran-	a-	fast	.	.	.	.	.	.	.	.	.	.	.	.	.	.	.	.	.	.	.	.	.
.	16G\	pod	-di	-li	.	.	.	.	.	16f 16d\	pod	-di	-li	die	.	.	.	.	.	.	.	.	.	.	.	.	.	.	.	.	.	.	.	.	.
.	4G\	skrzy-	ali_strin-	strin-	.	.	.	.	.	4f 4d\	skrzyd-	ali_strin-	strin-	Wol-	.	.	.	4r	.	.	.	.	.	.	.	.	4r	.	.	.	.	.	.	.	.
.	8G\	-dła	-ge	-ge.	.	.	.	.	.	8G/	-ła,	-ge	-ge	-ken,	.	.	.	8.r	.	.	.	.	.	.	.	.	8.r	.	.	.	.	.	.	.	.
.	16r	.	.	.	.	.	.	.	.	16r	.	.	.	.	.	.	.	.	.	.	.	.	.	.	.	.	.	.	.	.	.	.	.	.	.
!	!	!	!	!	!	!	!	!	!	!	!	!	!	!	!	!	!	!	!	!	!	!	!LO:DY:a:rj	!	!	!	!	!	!	!	!	!	!	!	!LO:DY:a:rj
.	16G\	kark	Le-	Il	.	.	.	.	.	16G/	kark	Le-	Il	Es	.	.	.	16g/	kark	Le-	Il	.	p	.	.	.	16g/	kark	Le-	Il	Es	.	.	.	p
=45	=45	=45	=45	=45	=45	=45	=45	=45	=45	=45	=45	=45	=45	=45	=45	=45	=45	=45	=45	=45	=45	=45	=45	=45	=45	=45	=45	=45	=45	=45	=45	=45	=45	=45	=45
1ryy	4..G\	wzno-	-va	ca-	.	.	1ryy	.	.	4..e\	wzno-	-va	ca-	bäumt	.	.	1ryy	4..g/	wzno-	-va	ca-	.	.	1ryy	.	.	4..g/	wzno-	-va	ca-	bäumt	.	.	.	.
.	16G\	-si	il	-po	.	.	.	.	.	16c\	-si	il	-po	sich	.	.	.	16g/	-si	il	-po	.	.	.	.	.	16ee\	-si	il	-po	sich	.	.	.	.
.	4..G\	zdep-	cal-	le-	.	.	.	.	.	4..G/	zdep-	id	le-	auf,	.	.	.	4..g/	zdep-	cal-	le-	.	.	.	.	.	4..ee\	zdep-	col-	le-	auf,	.	.	.	.
.	16G\	-tał	-lo	-va	.	.	.	.	.	16G/	-tał	lo	-va	als	.	.	.	16f/	-tał	-lo	-va	.	.	.	.	.	16dd\	-tał	-lo	-va	als	.	.	.	.
!!LO:PB:g=original
=46	=46	=46	=46	=46	=46	=46	=46	=46	=46	=46	=46	=46	=46	=46	=46	=46	=46	=46	=46	=46	=46	=46	=46	=46	=46	=46	=46	=46	=46	=46	=46	=46	=46	=46	=46
!	!LO:T:color=darkblue	!	!	!	!	!	!	!	!	!LO:S:color=darkblue	!	!	!	!	!	!	!	!LO:S:color=darkblue	!	!	!	!	!	!	!	!	!LO:S:color=darkblue	!	!	!	!	!	!	!	!
1ryy	[8.G\	fa-	Ten-	fin	.	.	1ryy	.	.	(8.c\	fa-	Ten-	fin	.	.	.	1ryy	(8.e/	fa-	Ten-	fin	.	.	1ryy	.	.	(8.cc\	fa-	Ten-	fin	wollt'	.	.	.	.
.	16G\]	-le	.	al	.	.	.	.	.	16d\)	-le	.	al	.	.	.	.	16d/)	-le	.	al	.	.	.	.	.	16b\)	-le	.	al	.	.	.	.	.
.	8.G\	i	-de	ciel	.	.	.	.	.	8.e\	i	-de	ciel	.	.	.	.	8.e/	i	-de	ciel	.	.	.	.	.	8.cc\	i	-de	ciel	es	.	.	.	.
.	16G\	o-	le	si	.	.	.	.	.	16G/	o-	le	si	.	.	.	.	16e/	o-	le	si	.	.	.	.	.	16cc#X\	o-	le	si	em-	.	.	.	.
!	!LO:S:color=darkblue	!	!	!	!	!	!	!	!	!LO:T:color=darkblue	!	!	!	!	!	!	!	!LO:S:color=darkblue	!	!	!	!	!	!	!	!	!LO:S:color=darkblue	!	!	!	!	!	!	!	!
.	(4G\	-bło-	nu-	spin-	.	.	.	.	.	[4G/	-bło-	nu-	spin-	.	.	.	.	(4f/	-bło-	nu-	spin-	.	.	.	.	.	(4dd\	-bło-	nu-	spin-	-por	.	.	.	.
.	8GG/)	-ki	-bi	-ge	.	.	.	.	.	8G/]	-ki	-bi	-ge	.	.	.	.	8f/)	-ki	-bi	-ge	.	.	.	.	.	8g/)	-ki	-bi	-ge	.	.	.	.	.
.	16r	.	.	.	.	.	.	.	.	16r	.	.	.	.	.	.	.	16r	.	.	.	.	.	.	.	.	16r	.	.	.	.	.	.	.	.
.	16G\	swem	e_il	e_il	.	.	.	.	.	16G/	swem	e_il	e_il	.	.	.	.	16f/	swem	e_il	e_il	.	.	.	.	.	16g/	swem	e_il	e_il	zum	.	.	.	.
=47	=47	=47	=47	=47	=47	=47	=47	=47	=47	=47	=47	=47	=47	=47	=47	=47	=47	=47	=47	=47	=47	=47	=47	=47	=47	=47	=47	=47	=47	=47	=47	=47	=47	=47	=47
2ryy	4..G\	czo-	ven-	ven-	.	.	2ryy	.	.	4..G/	czo-	ven-	ven-	.	.	.	2ryy	4..f/	czo-	ven-	ven-	.	.	2ryy	.	.	4..g/	czo-	ven-	ven-	Him-	.	.	.	.
.	16G\	-łem	.	-to	.	.	.	.	.	16g 16e\	-łem	.	-to	.	.	.	.	16g/	-łem	.	-to	.	.	.	.	.	16ee\	-łem	.	-to	-mel	.	.	.	.
4G\	4..G\	sie-	-to	nel-	.	.	4g 4e\	.	.	4..g 4..e\	sie-	-to	nel-	.	.	.	4g\	4..g/	sie-	-to	nel-	.	.	4gg 4ee\	schnel-	.	4..gg 4..ee\	sie-	-to	nel-	.	.	.	.	.
8.G\	.	.	.	.	.	.	8.g 8.e\	.	.	.	.	.	.	.	.	.	8.g\	.	.	.	.	.	.	8.gg 8.ee\	-len,	.	.	.	.	.	.	.	.	.	.
16G\	16G\	-ka	nelle	-le	.	.	16f 16d\	.	.	16f 16d\	-ka	nelle	-le	.	.	.	16g\	16g/	-ka	nelle	-le	.	.	16ff 16dd\	Bald	.	16ff 16dd\	-ka	nelle	-le	.	.	.	.	.
=48	=48	=48	=48	=48	=48	=48	=48	=48	=48	=48	=48	=48	=48	=48	=48	=48	=48	=48	=48	=48	=48	=48	=48	=48	=48	=48	=48	=48	=48	=48	=48	=48	=48	=48	=48
1ryy	8.G\	chwy-	gran-	gran-	.	.	1ryy	.	.	8.e 8.c\	chwy-	gran-	gran-	.	.	.	1ryy	8.g/	chwy-	gran-	gran-	.	.	1ryy	.	.	8.ee 8.cc\	chwy-	gran-	gran-	streift	.	.	.	.
.	16G\	-ta	.	-di	.	.	.	.	.	16d 16B\	-ta	.	-di	.	.	.	.	16g/	-ta	.	-di	.	.	.	.	.	16dd 16b\	-ta	.	-di	es	.	.	.	.
.	8.G\	wiatr	-di	a-	.	.	.	.	.	8.e 8.c\	wiatr	-di	a-	.	.	.	.	8.g/	wiatr	-di	a-	.	.	.	.	.	8.ee 8.cc\	wiatr	-di	a-	fast	.	.	.	.
.	16G\	pod	ali	-li	.	.	.	.	.	16f 16d\	pod	ali	-li	.	.	.	.	16g/	pod	ali	-li	.	.	.	.	.	16ff 16dd\	pod	ali	-li	die	.	.	.	.
.	4G\	skrzy-	strin-	strin-	.	.	.	.	.	4f 4d\	skrzy-	strin-	strin-	.	.	.	.	4g/	skrzy-	strin-	strin-	.	.	.	.	.	4ff 4dd\	skrzyd-	strin-	strin-	Wol-	.	.	.	.
.	8G\	-dła	-ge	-ge	.	.	.	.	.	8G/	-dła	-ge	-ge	.	.	.	.	8g/	-dła	-ge	-ge	.	.	.	.	.	8g/	-ła	-ge	-ge	-ken.	.	.	.	.
.	8r	.	.	.	.	.	.	.	.	8r	.	.	.	.	.	.	.	8r	.	.	.	.	.	.	.	.	8r	.	.	.	.	.	.	.	.
!!LO:LB:g=original
=49	=49	=49	=49	=49	=49	=49	=49	=49	=49	=49	=49	=49	=49	=49	=49	=49	=49	=49	=49	=49	=49	=49	=49	=49	=49	=49	=49	=49	=49	=49	=49	=49	=49	=49	=49
1ryy	2r	.	.	.	.	.	1ryy	.	.	2r	.	.	.	.	.	.	1ryy	4r	.	.	.	.	.	1ryy	.	.	1ee^	szum	cre-	Cre-	Braust's	.	.	.	.
.	.	.	.	.	.	.	.	.	.	.	.	.	.	.	.	.	.	2cc^\	szum	Cre-	cre-	lau-	.	.	.	.	.	.	.	.	.	.	.	.	.
*	*	*	*color:red	*	*	*	*	*	*	*	*	*color:red	*	*	*	*	*	*	*	*	*	*	*	*	*	*	*	*	*	*	*	*	*	*	*
.	4r	.	.	.	.	.	.	.	.	2g 2e^\	szum	il	[[Cre-	braust's	.	.	.	.	.	.	.	.	.	.	.	.	.	.	.	.	.	.	.	.	.
.	4c^\	szum	il	braust's	.	.	.	.	.	.	.	.	.	.	.	.	.	4cc\	.	.	-sce_il	-ter	.	.	.	.	.	.	.	.	.	.	.	.	.
=50	=50	=50	=50	=50	=50	=50	=50	=50	=50	=50	=50	=50	=50	=50	=50	=50	=50	=50	=50	=50	=50	=50	=50	=50	=50	=50	=50	=50	=50	=50	=50	=50	=50	=50	=50
!	!	!	!	!	!	!	!	!	!	!	!	!	!	!	!	!	!	!	!	!	!	!	!	!	!	!	!LO:TX:a:B:rj:t=O:color=red	!	!	!	!	!	!	!	!
1ryy	2c#X^\	wię-	ven-	lau-	.	.	1ryy	.	.	2.g 2.e\	wię-	ven-	-sce i]]	lau-	.	.	1ryy	(2.cc#X\	wię-	-sce	ven-	braust's	.	1ryy	.	.	2.ee\	wię-	-sce_il	-sce_il	lau-	.	.	.	.
.	4C#X/	-kszy	-to	-ter,	.	.	.	.	.	.	.	.	.	.	.	.	.	.	.	.	.	.	.	.	.	.	.	.	.	.	.	.	.	.	.
.	4r	.	.	.	.	.	.	.	.	8G/	-kszy	-to	.	-ter,	.	.	.	8cc#\)	-kszy	il	-to	.	.	.	.	.	4ee\	-kszy	il	ru-	-ter	.	.	.	.
.	.	.	.	.	.	.	.	.	.	8r	.	.	.	.	.	.	.	8r	.	.	.	.	.	.	.	.	.	.	.	.	.	.	.	.	.
*	*	*	*color:auto	*	*	*	*	*	*	*	*	*color:auto	*	*	*	*	*	*	*	*	*	*	*	*	*	*	*	*	*	*	*	*	*	*	*
=51	=51	=51	=51	=51	=51	=51	=51	=51	=51	=51	=51	=51	=51	=51	=51	=51	=51	=51	=51	=51	=51	=51	=51	=51	=51	=51	=51	=51	=51	=51	=51	=51	=51	=51	=51
1ryy	2r	.	.	.	.	.	1ryy	.	.	2r	.	.	.	.	.	.	1ryy	4r	.	.	.	.	.	1ryy	.	.	1ff^	szum	rumor	-mor	braust's,	.	.	.	.
!	!	!	!	!	!	!	!	!	!	!	!	!	!	!	!	!	!	!LO:S:color=dodgerblue	!	!	!	!	!	!	!	!	!	!	!	!	!	!	!	!	!
.	.	.	.	.	.	.	.	.	.	.	.	.	.	.	.	.	.	(2dd-X^\	szum	ru-	e_il	lau-	.	.	.	.	.	.	.	.	.	.	.	.	.
.	4r	.	.	.	.	.	.	.	.	2a-X 2f^\	szum	.	La	braust's	.	.	.	.	.	.	.	.	.	.	.	.	.	.	.	.	.	.	.	.	.
.	4d-X^\	szum	La	braust's	.	.	.	.	.	.	.	.	.	.	.	.	.	4dd-\)	.	-mor	fra-	-ter	.	.	.	.	.	.	.	.	.	.	.	.	.
=52	=52	=52	=52	=52	=52	=52	=52	=52	=52	=52	=52	=52	=52	=52	=52	=52	=52	=52	=52	=52	=52	=52	=52	=52	=52	=52	=52	=52	=52	=52	=52	=52	=52	=52	=52
!	!	!	!	!	!	!	!	!	!	!	!	!	!	!	!	!	!	!LO:T:color=darkblue	!	!	!	!	!	!	!	!	!	!	!	!	!	!	!	!	!
1ryy	2dn^\	wię-	brez-	lau-	.	.	1ryy	.	.	2.a-X 2.f\	wię-	.	brez-	lau-	.	.	1ryy	[2.ddn\	wię-	Cre-	-go-	braust's	.	1ryy	.	.	2.ff\	wię-	Cre-	Cre-	lau-	.	.	.	.
.	4D\	-kszy	-za	-ter.	.	.	.	.	.	.	.	.	.	.	.	.	.	.	.	.	.	.	.	.	.	.	.	.	.	.	.	.	.	.	.
.	4r	.	.	.	.	.	.	.	.	8A-X/	-kszy	.	-za	-ter	.	.	.	8dd\]	-kszy	-sce	-re	.	.	.	.	.	4ff\	-kszy	-sce	-sce	-ter	.	.	.	.
.	.	.	.	.	.	.	.	.	.	8r	.	.	.	.	.	.	.	8r	.	.	.	.	.	.	.	.	.	.	.	.	.	.	.	.	.
!!LO:PB:g=original
=53	=53	=53	=53	=53	=53	=53	=53	=53	=53	=53	=53	=53	=53	=53	=53	=53	=53	=53	=53	=53	=53	=53	=53	=53	=53	=53	=53	=53	=53	=53	=53	=53	=53	=53	=53
1ryy	2r	.	.	.	.	.	1ryy	.	.	2r	.	.	.	.	.	.	1ryy	4r	.	.	.	.	.	1ryy	.	.	1ff#X^	szum	cre-	braust's	.	.	.	.	.
*	*	*	*	*	*	*	*	*	*	*	*	*	*	*	*	*	*	*	*	*above	*	*	*	*	*	*	*	*	*	*	*	*	*	*	*
!	!	!	!	!	!	!	!	!	!	!	!	!	!	!	!	!	!	!LO:T:color=dodgerblue	!	!	!	!	!	!	!	!	!	!	!	!	!	!	!	!	!
.	.	.	.	.	.	.	.	.	.	.	.	.	.	.	.	.	.	[2dd^\	szum	cre-	lau-	.	.	.	.	.	.	.	.	.	.	.	.	.	.
.	4r	.	.	.	.	.	.	.	.	2an 2f#X^\	szum	La	braust's	.	.	.	.	.	.	.	.	.	.	.	.	.	.	.	.	.	.	.	.	.	.
.	4d^\	szum	la	braust's	.	.	.	.	.	.	.	.	.	.	.	.	.	4dd\]	.	-sce_il	-ter	.	.	.	.	.	.	.	.	.	.	.	.	.	.
=54	=54	=54	=54	=54	=54	=54	=54	=54	=54	=54	=54	=54	=54	=54	=54	=54	=54	=54	=54	=54	=54	=54	=54	=54	=54	=54	=54	=54	=54	=54	=54	=54	=54	=54	=54
!	!	!	!	!	!	!	!	!	!	!	!	!	!	!	!	!	!	!LO:T:color=darkblue	!	!	!	!	!	!	!	!	!	!	!	!	!	!	!	!	!
1ryy	2d#X^\	wię-	brez-	lau-	.	.	1ryy	.	.	2.a 2.f#X\	wię-	brez-	lau-	.	.	.	1ryy	[2.dd#X\	.	ven-	braust's	.	.	1ryy	.	.	2.ff#X\	wię-	-sce_il	lau-	.	.	.	.	.
.	8D#X\	-kszy	-za	-ter.	.	.	.	.	.	.	.	.	.	.	.	.	.	.	.	.	.	.	.	.	.	.	.	.	.	.	.	.	.	.	.
.	8r	.	.	.	.	.	.	.	.	.	.	.	.	.	.	.	.	.	.	.	.	.	.	.	.	.	.	.	.	.	.	.	.	.	.
.	4r	.	.	.	.	.	.	.	.	8A/	-kszy	-za!	-ter	.	.	.	.	8dd#\]	.	-to	.	.	.	.	.	.	4ff#\	-kszy	ru-	-ter	.	.	.	.	.
.	.	.	.	.	.	.	.	.	.	8r	.	.	.	.	.	.	.	8r	.	.	.	.	.	.	.	.	.	.	.	.	.	.	.	.	.
=55	=55	=55	=55	=55	=55	=55	=55	=55	=55	=55	=55	=55	=55	=55	=55	=55	=55	=55	=55	=55	=55	=55	=55	=55	=55	=55	=55	=55	=55	=55	=55	=55	=55	=55	=55
1ryy	2r	.	.	.	.	.	1ryy	.	.	2r	.	.	.	.	.	.	1ryy	4r	.	.	.	.	.	1ryy	.	.	[1gg	szum	-mor.	braust's	.	.	.	.	.
!	!	!	!	!	!	!	!	!	!	!	!	!	!	!	!	!	!	!LO:T:color=dodgerblue	!	!	!	!	!	!	!	!	!	!	!	!	!	!	!	!	!
.	.	.	.	.	.	.	.	.	.	.	.	.	.	.	.	.	.	[2ee-X^\	szum	e_il	lau-	.	.	.	.	.	.	.	.	.	.	.	.	.	.
.	4r	.	.	.	.	.	.	.	.	[2g^\	szum	cre-	braust's	.	.	.	.	.	.	.	.	.	.	.	.	.	.	.	.	.	.	.	.	.	.
.	4e-X^\	szum	si_ac-	braust's	.	.	.	.	.	.	.	.	.	.	.	.	.	4ee-\]	.	fra-	-ter	.	.	.	.	.	.	.	.	.	.	.	.	.	.
=56	=56	=56	=56	=56	=56	=56	=56	=56	=56	=56	=56	=56	=56	=56	=56	=56	=56	=56	=56	=56	=56	=56	=56	=56	=56	=56	=56	=56	=56	=56	=56	=56	=56	=56	=56
*	*	*	*	*	*	*	*	*	*	*	*	*	*	*	*	*	*	*	*color:dodgerblue	*	*	*	*	*	*	*	*	*	*	*	*	*	*	*	*
!	!	!	!	!	!	!	!	!	!	!	!	!	!	!	!	!	!	!LO:T:color=darkblue	!	!	!	!	!	!	!	!	!	!	!	!	!	!	!	!	!
1ryy	2en^\	wię-	-cres-	lau-	.	.	1ryy	.	.	2.g\]	.	-sce!	.	.	.	.	1ryy	[2.b-X\	szum	-go-	braust's	.	.	1ryy	.	.	2.gg\]	.	.	.	.	.	.	.	.
.	8E\	-kszy	-sce	-ter	.	.	.	.	.	.	.	.	.	.	.	.	.	.	.	.	.	.	.	.	.	.	.	.	.	.	.	.	.	.	.
.	8r	.	.	.	.	.	.	.	.	.	.	.	.	.	.	.	.	.	.	.	.	.	.	.	.	.	.	.	.	.	.	.	.	.	.
.	4e/@	i	.	.	.	.	.	.	.	4r	.	.	.	.	.	.	.	8b-\]	.	-re	.	.	.	.	.	.	4r	.	.	.	.	.	.	.	.
.	.	.	.	.	.	.	.	.	.	.	.	.	.	.	.	.	.	8r	.	.	.	.	.	.	.	.	.	.	.	.	.	.	.	.	.
!!LO:LB:g=original
=57	=57	=57	=57	=57	=57	=57	=57	=57	=57	=57	=57	=57	=57	=57	=57	=57	=57	=57	=57	=57	=57	=57	=57	=57	=57	=57	=57	=57	=57	=57	=57	=57	=57	=57	=57
*	*	*	*	*	*	*	*	*	*	*	*	*	*	*	*	*	*	*	*color:auto	*below	*	*	*	*	*	*	*	*	*	*	*	*	*	*	*
!	!LO:S:color=darkblue	!	!	!	!	!	!	!	!	!LO:T:color=darkblue	!	!	!	!	!	!	!	!LO:S:color=darkblue	!	!	!	!	!	!	!	!	!LO:S:color=darkblue	!	!	!	!	!	!	!	!
1ryy	(4.en\	gę-	s'affol-	L'al-	.	.	1ryy	.	.	[4.e^\	gę-	s'affol-	L'al-	.	.	.	1ryy	(4.bn^>/	gę-	s'affol-	L'al-	.	.	1ryy	.	.	(4.gg^\	gę-	s'affol-	L'al-	Es	.	.	.	.
.	8Bn\)	-ściej	-la	-ma	.	.	.	.	.	8e\]	-ściej	-la	-ma	.	.	.	.	8g/)	-ściej	-la	-ma	.	.	.	.	.	8ee\)	-ściej	-la	-ma	.	.	.	.	.
!	!LO:S:color=darkblue	!	!	!	!	!	!	!	!	!LO:T:color=darkblue	!	!	!	!	!	!	!	!LO:S:color=darkblue	!	!	!	!	!	!	!	!	!LO:S:color=darkblue	!	!	!	!	!	!	!	!
.	(4.e\	gę-	no-	mi-	.	.	.	.	.	[4.e^\	gę-	no-	mi-	.	.	.	.	(4.b^>/	gę-	no-	mi-	.	.	.	.	.	(4.gg^\	gę-	no-	mi-	thür-	.	.	.	.
.	8B\)	-ściej	-i_fan-	-a	.	.	.	.	.	8e\]	-ściej	-i_fan-	-a	.	.	.	.	8g/)	-ściej	-i_fan-	-a	.	.	.	.	.	8ee\)	-ściej	-i_fan-	-a	.	.	.	.	.
=58	=58	=58	=58	=58	=58	=58	=58	=58	=58	=58	=58	=58	=58	=58	=58	=58	=58	=58	=58	=58	=58	=58	=58	=58	=58	=58	=58	=58	=58	=58	=58	=58	=58	=58	=58
1ryy	4.B^\	mor-	-tas-	so-	.	.	1ryy	.	.	4.e^\	mor-	-tas-	so-	.	.	.	1ryy	4.b^>/	mor-	-tas-	so-	.	.	1ryy	.	.	4.gg^\	mor-	-tas-	so-	-men	.	.	.	.
.	8B\	-skie	.	-vra	.	.	.	.	.	8e\	-skie	.	-vra	.	.	.	.	8g/	-skie	.	-vra	.	.	.	.	.	8ee\	-skie	.	-vra	ges-	.	.	.	.
.	8B\	snu-	-mi	gli	.	.	.	.	.	8e\	snu-	-mi	gli	.	.	.	.	8b/	snu-	-mi	gli	.	.	.	.	.	8b\	snu-	-mi	gli	-pen-	.	.	.	.
.	8B\	-ją	su-	a-	.	.	.	.	.	8e\	-ją	su-	a-	.	.	.	.	8g/	-ją	su-	a-	.	.	.	.	.	8g/	-ją	su-	a-	-stisch	.	.	.	.
.	8B\	się	.	-bis-	.	.	.	.	.	8e\	się	.	-bis-	.	.	.	.	8b/	się	.	-bis-	.	.	.	.	.	8b\	się	.	-bis-	sich	.	.	.	.
.	8B\	stra-	-i	-si	.	.	.	.	.	8e\	stra-	-i	-si	.	.	.	.	8g/	stra-	-i	-si	.	.	.	.	.	8ee\	stra-	-i	-si	die	.	.	.	.
=59	=59	=59	=59	=59	=59	=59	=59	=59	=59	=59	=59	=59	=59	=59	=59	=59	=59	=59	=59	=59	=59	=59	=59	=59	=59	=59	=59	=59	=59	=59	=59	=59	=59	=59	=59
1ryy	1B	-szy-	flut-	vo-	.	.	1ryy	.	.	1d	-szy-	flut-	vo-	.	.	.	1ryy	1g	-szy-	flut-	vo-	.	.	1ryy	.	.	1ff	-szy-	flut-	vo-	Wo-	.	.	.	.
=60	=60	=60	=60	=60	=60	=60	=60	=60	=60	=60	=60	=60	=60	=60	=60	=60	=60	=60	=60	=60	=60	=60	=60	=60	=60	=60	=60	=60	=60	=60	=60	=60	=60	=60	=60
1ryy	8G\	-dła	-ti	-la	.	.	1ryy	.	.	8G/	-dła	-ti	-la	.	.	.	1ryy	8g/	-dła	-ti	-la	.	.	1ryy	.	.	8g/	-dła	-ti	-la	-gen!	.	.	.	.
.	8r	.	.	.	.	.	.	.	.	8r	.	.	.	.	.	.	.	8r	.	.	.	.	.	.	.	.	8r	.	.	.	.	.	.	.	.
.	4r	.	.	.	.	.	.	.	.	4r	.	.	.	.	.	.	.	4r	.	.	.	.	.	.	.	.	4r	.	.	.	.	.	.	.	.
.	2r	.	.	.	.	.	.	.	.	2r	.	.	.	.	.	.	.	2r	.	.	.	.	.	.	.	.	2r	.	.	.	.	.	.	.	.
!!LO:PB:g=original
=61	=61	=61	=61	=61	=61	=61	=61	=61	=61	=61	=61	=61	=61	=61	=61	=61	=61	=61	=61	=61	=61	=61	=61	=61	=61	=61	=61	=61	=61	=61	=61	=61	=61	=61	=61
!	!	!	!	!	!	!	!	!	!	!	!	!	!	!	!	!	!	!	!	!	!	!	!LO:DY:rj	!	!	!	!	!	!	!	!	!	!	!	!LO:DY:a:rj
1ryy	4c\	Dą-	Bal-	Bal-	.	.	1ryy	.	.	4e\	Dą-	Bal-	Bal-	.	.	.	1ryy	4g/	Dą-	Bal-	Bal-	.	ff	1ryy	.	.	4ee\	Dą-	Bal-	Bal-	Die	.	.	.	ff
.	8.F\	-sa	-za	-za	.	.	.	.	.	8.c\	-sa	-za	-za	.	.	.	.	8.a/	-sa	-za	-za	.	.	.	.	.	8.ff\	-sa	-za	-za	Se-	.	.	.	.
.	16G\	się	la	la	.	.	.	.	.	16B\	się	la	la	.	.	.	.	16g/	się	la	la	.	.	.	.	.	16dd\	się	la	la	-gel	.	.	.	.
.	4G\	o-	na-	na-	.	.	.	.	.	4B\	o-	na-	na-	.	.	.	.	4g/	o-	na-	na-	.	.	.	.	.	4dd\	o-	na-	na-	schwel-	.	.	.	.
.	8c\	-kręt	-ve	-ve	.	.	.	.	.	8c\	-kręt	-ve	-ve	.	.	.	.	8e/	-kręt	-ve	-ve	.	.	.	.	.	8ee\	-kręt	-ve	-ve	-len,	.	.	.	.
.	16r	.	.	.	.	.	.	.	.	16r	.	.	.	.	.	.	.	16r	.	.	.	.	.	.	.	.	16r	.	.	.	.	.	.	.	.
.	16d\	i	la	sui	.	.	.	.	.	16d\	i	la	sui	.	.	.	.	16f/	i	la	sui	.	.	.	.	.	16dd\	i	la	sui	fort	.	.	.	.
=62	=62	=62	=62	=62	=62	=62	=62	=62	=62	=62	=62	=62	=62	=62	=62	=62	=62	=62	=62	=62	=62	=62	=62	=62	=62	=62	=62	=62	=62	=62	=62	=62	=62	=62	=62
1ryy	4d\	zry-	na-	fie-	.	.	8f\	.	.	4f\	zry-	na-	fie-	.	.	.	8f\	4f/	zry-	na-	fie-	.	.	8dd\	jagt	.	4dd\	zry-	na-	fie-	.	.	.	.	.
.	.	.	.	.	.	.	8f\	.	.	.	.	.	.	.	.	.	8f\	.	.	.	.	.	.	8dd\	das	.	.	.	.	.	.	.	.	.	.
.	8.G\	-wa	-ve	-ri	.	.	4ryy	.	.	8.e\	-wa	-ve	-ri	.	.	.	4ryy	8.g/	-wa	-ve	-ri	.	.	4ryy	.	.	8.b-X\	-wa	-ve	-ri	Schiff	.	.	.	.
.	16A\	wę-	sui	ma-	.	.	.	.	.	16c#X\	wę-	sui	ma-	.	.	.	.	16e/	wę-	sui_ma-	ma-	.	.	.	.	.	16a/	wę-	sui	ma-	ent-	.	.	.	.
.	8A\	-dzi-	maro-	-ro-	.	.	2ryy	.	.	8c#\	-dzi-	maro-	-ro-	.	.	.	2ryy	8e/	-dzi-	-ro-	-ro-	.	.	2ryy	.	.	8a/	-dzi-	maro-	-ro-	-zu-	.	.	.	.
.	8D\	-dła	-si	-si	.	.	.	.	.	8d\	-dła	-si	-si	.	.	.	.	8f/	-dła	-si	-si	.	.	.	.	.	8f/	-dła	-si	-si	-gelt,	.	.	.	.
.	8.r	.	.	.	.	.	.	.	.	8.r	.	.	.	.	.	.	.	8.r	.	.	.	.	.	.	.	.	8.r	.	.	.	.	.	.	.	.
.	16F\	prze-	Rompei	Ric-	.	.	.	.	.	16f\	prze-	Rompei	Ric-	.	.	.	.	16a/	prze-	Rompei	Ric-	.	.	.	.	.	16ff\	prze-	Rompei	Ric-	Es	.	.	.	.
=63	=63	=63	=63	=63	=63	=63	=63	=63	=63	=63	=63	=63	=63	=63	=63	=63	=63	=63	=63	=63	=63	=63	=63	=63	=63	=63	=63	=63	=63	=63	=63	=63	=63	=63	=63
1ryy	4F^\	-wa-	fre-	-cad-	.	.	8f\	.	.	4f^\	-wa-	fre-	-cad-	.	.	.	8a\	4a^>/	-wa-	fre-	-cad-	.	.	8ff\	.	.	4ff^\	-wa-	fre-	-cad-	neigt	.	.	.	.
.	.	.	.	.	.	.	8f\	.	.	.	.	.	.	.	.	.	8a\	.	.	.	.	.	.	8ff\	.	.	.	.	.	.	.	.	.	.	.
.	8.B-X\	-la	-ni	-de	.	.	4ryy	.	.	8.f\	-la	-ni	-de	.	.	.	4ryy	8.b-X/	-la	-ni	-de	.	.	4ryy	.	.	8.dd\	-la	-ni	-de	sich	.	.	.	.
.	16c\	nur-	s'a	fre-	.	.	.	.	.	16e\	nur-	s'a	fre-	.	.	.	.	16g/	nur-	s'a	fre-	.	.	.	.	.	16cc\	nur-	s'a	fre-	jäh-	.	.	.	.
.	4c\	-ku-	la-	-men-	.	.	2ryy	.	.	4e\	-ku-	la-	-men-	.	.	.	2ryy	4g/	-ku-	la-	-men-	.	.	2ryy	.	.	4cc\	-ku-	la-	-men-	-lings	.	.	.	.
.	8c\	-je	-gia	-te	.	.	.	.	.	8f\	-je	-gia	-te	.	.	.	.	8a/	-je	-gia	-te	.	.	.	.	.	8a/	-je	-gia	-te	seitwärts,	.	.	.	.
.	16r	.	.	.	.	.	.	.	.	16r	.	.	.	.	.	.	.	16r	.	.	.	.	.	.	.	.	16r	.	.	.	.	.	.	.	.
.	16G\	w_pie-	nei	Sui	.	.	.	.	.	16d\	w_pie-	nei	sui	.	.	.	.	16b-\	w_pie-	nei	Sui	.	.	.	.	.	16dd\	w_pie-	nei	sui	es	.	.	.	.
!!LO:PB:g=original
=64	=64	=64	=64	=64	=64	=64	=64	=64	=64	=64	=64	=64	=64	=64	=64	=64	=64	=64	=64	=64	=64	=64	=64	=64	=64	=64	=64	=64	=64	=64	=64	=64	=64	=64	=64
8G\	4G^\	-ni-	vor-	flut-	.	.	8g\	.	.	4g^\	-ni-	vor-	.	.	.	.	8b-X\	4b-X^\	-ni-	vor-	flut-	.	.	8gg\	taucht	.	4gg^\	-ni-	vor-	flut-	.	.	.	.	.
8G\	.	.	.	.	.	.	8g\	.	.	.	.	.	.	.	.	.	8b-\	.	.	.	.	.	.	8gg\	in	.	.	.	.	.	.	.	.	.	.
4ryy	8.c\	-stej	-tici	-ti	.	.	4ryy	.	.	8.g\	-stej	-tici	.	.	.	.	4ryy	8.cc\	-stej	-tici	-ti	.	.	4ryy	.	.	8.ee-X\	-stej	-tici	-ti	Schau-	.	.	.	.
.	16d\	za-	schiu-	schiu-	.	.	.	.	.	16f#X\	za-	schiu-	.	.	.	.	.	16a/	za-	schiu-	schiu-	.	.	.	.	.	16dd\	za-	schiu-	schiu-	-mes	.	.	.	.
2ryy	8d\	-mie-	-mo-	-mo-	.	.	2ryy	.	.	8f#\	-mie-	-mo-	.	.	.	.	2ryy	8a/	-mie-	-mo-	-mo-	.	.	2ryy	.	.	8dd\	-mie-	-mo-	-mo-	wel-	.	.	.	.
.	8G\	-ci	-si	-si	.	.	.	.	.	8g\	-ci	-si	.	.	.	.	.	8b-\	-ci	-si	-si	.	.	.	.	.	8b-X\	-ci	-si	-si	-len.	.	.	.	.
.	4r	.	.	.	.	.	.	.	.	4r	.	.	.	.	.	.	.	4r	.	.	.	.	.	.	.	.	4r	.	.	.	.	.	.	.	.
=65	=65	=65	=65	=65	=65	=65	=65	=65	=65	=65	=65	=65	=65	=65	=65	=65	=65	=65	=65	=65	=65	=65	=65	=65	=65	=65	=65	=65	=65	=65	=65	=65	=65	=65	=65
!	!LO:S:color=darkblue	!	!	!	!	!	!	!	!	!LO:S:color=darkblue	!	!	!	!	!	!	!	!	!	!	!	!	!	!	!	!	!LO:TX:a:B:t=U:color=red	!	!	!	!	!	!	!	!
1ryy	(<4..B-X\	wzno-	Le-	Le-	Bald	.	1ryy	.	.	(4..B-X\	wzno-	Le	Le-	Bald	.	.	1ryy	1r	.	.	.	.	.	1ryy	.	.	1r	.	.	.	.	.	.	.	.
.	16BB-X/)	-si	-va il	-va_il	.	.	.	.	.	16g 16B-\)	-si	.	-va_il	.	.	.	.	.	.	.	.	.	.	.	.	.	.	.	.	.	.	.	.	.	.
.	4..BB-/	kark	tell-	ca-	streift	.	.	.	.	4..g 4..B-\	kark	.	ca-	streift	.	.	.	.	.	.	.	.	.	.	.	.	.	.	.	.	.	.	.	.	.
.	16B-\	śród	-adei	-po	es	.	.	.	.	16f 16A-X\	śród	.	-po_e	es,	.	.	.	.	.	.	.	.	.	.	.	.	.	.	.	.	.	.	.	.	.
=66	=66	=66	=66	=66	=66	=66	=66	=66	=66	=66	=66	=66	=66	=66	=66	=66	=66	=66	=66	=66	=66	=66	=66	=66	=66	=66	=66	=66	=66	=66	=66	=66	=66	=66	=66
1ryy	4..B-X\	nie-	flutti	fin	fast	.	1ryy	.	.	8.e-X 8.G\	nie-	.	fin	streift	.	.	1ryy	2r	.	.	.	.	.	1ryy	.	.	2r	.	.	.	.	.	.	.	.
.	.	.	.	.	.	.	.	.	.	16d 16F\	-bios	.	al	es	.	.	.	.	.	.	.	.	.	.	.	.	.	.	.	.	.	.	.	.	.
.	.	.	.	.	.	.	.	.	.	8.e- 8.G\	le-	.	ciel	fast	.	.	.	.	.	.	.	.	.	.	.	.	.	.	.	.	.	.	.	.	.
.	16BB-X/	-bios	final	al-	die	.	.	.	.	16en 16G\	-ci	.	si	die	.	.	.	.	.	.	.	.	.	.	.	.	.	.	.	.	.	.	.	.	.
.	4..BB-/	le-	nel	-cir-	Wol-	.	.	.	.	4f 4A-X\	le-	.	spin-	Wol-	.	.	.	4r	.	.	.	.	.	.	.	.	4r	.	.	.	.	.	.	.	.
.	.	.	.	.	.	.	.	.	.	8B-X\	-ci	.	-ge	-ken,	.	.	.	8.r	.	.	.	.	.	.	.	.	8.r	.	.	.	.	.	.	.	.
.	.	.	.	.	.	.	.	.	.	8r	.	.	.	.	.	.	.	.	.	.	.	.	.	.	.	.	.	.	.	.	.	.	.	.	.
!	!	!	!	!	!	!	!	!	!	!	!	!	!	!	!	!	!	!	!	!	!	!	!LO:DY:a:rj	!	!	!	!	!	!	!	!	!	!	!	!LO:DY:a
.	16B-\	-ci	final	-lo	-ken,	.	.	.	.	.	.	.	.	.	.	.	.	16b-X\	o-	.	La	.	p	.	.	.	16b-X\	o-	.	La	Bald	.	.	.	p
!!LO:PB:g=original
=67	=67	=67	=67	=67	=67	=67	=67	=67	=67	=67	=67	=67	=67	=67	=67	=67	=67	=67	=67	=67	=67	=67	=67	=67	=67	=67	=67	=67	=67	=67	=67	=67	=67	=67	=67
!	!LO:S:color=darkblue	!	!	!	!	!	!	!	!	!	!	!	!	!	!	!	!	!	!	!	!	!	!	!	!	!	!	!	!	!	!	!	!	!	!
1ryy	(4..B-X\	le-	cie-	Le-	bald	.	1ryy	.	.	1r	.	.	.	.	.	.	1ryy	4..g/	-bło-	il_cielo	.	.	.	1ryy	.	.	4..b\	-bło-	al_cielo	brez-	schiesst's	.	.	.	.
.	16BB-X/)	-ci	-lo	-va_il	.	.	.	.	.	.	.	.	.	.	.	.	.	16g/	-ki	si	.	.	.	.	.	.	16b\	-ki	si	-za	da	.	.	.	.
.	4..BB-/	o-	fin	ca-	schiesst's	.	.	.	.	.	.	.	.	.	.	.	.	4..g/	czo-	spin-	.	.	.	.	.	.	4..b\	czo-	spin-	nel-	von,	.	.	.	.
.	16B-\	-błok	al	-po	da-	.	.	.	.	.	.	.	.	.	.	.	.	16f/	-łem	-ge_si	.	.	.	.	.	.	16a-X/	-łem	-ge_si	-le	bald	.	.	.	.
=68	=68	=68	=68	=68	=68	=68	=68	=68	=68	=68	=68	=68	=68	=68	=68	=68	=68	=68	=68	=68	=68	=68	=68	=68	=68	=68	=68	=68	=68	=68	=68	=68	=68	=68	=68
1ryy	4..B-X\	czo-	cielo	fin	-von	.	1ryy	.	.	1r	.	.	.	.	.	.	1ryy	8.e/	się-	spin-	.	.	.	1ryy	.	.	8.g/	się-	spin-	gran-	schiesst's	.	.	.	.
.	.	.	.	.	.	.	.	.	.	.	.	.	.	.	.	.	.	16f/	-ga,	-ge	.	.	.	.	.	.	16b-X/	-ga	-ge	-di	da-	.	.	.	.
.	.	.	.	.	.	.	.	.	.	.	.	.	.	.	.	.	.	8.g/	dep-	su-	.	.	.	.	.	.	8.ee-X\	dep-	sui	a-	-von	.	.	.	.
.	16B-\	-łem	si	al	be-	.	.	.	.	.	.	.	.	.	.	.	.	16a-X/	-ce	-i	.	.	.	.	.	.	16ff\	-ce	i	-li	be-	.	.	.	.
.	4..B-\	sie-	spin-	ciel	-flü-	.	.	.	.	.	.	.	.	.	.	.	.	8a-/	fa-	flut-	.	.	.	.	.	.	8ff\	fa-	flut-	strin-	-flü-	.	.	.	.
.	.	.	.	.	.	.	.	.	.	.	.	.	.	.	.	.	.	8b-X/	-le	-ti	.	.	.	.	.	.	8b-\	-le	-ti	-ge	-gelt.	.	.	.	.
.	.	.	.	.	.	.	.	.	.	.	.	.	.	.	.	.	.	4r	.	.	.	.	.	.	.	.	4r	.	.	.	.	.	.	.	.
.	16Bn\	-ka,	-ge	e_il	-gelt,	.	.	.	.	.	.	.	.	.	.	.	.	.	.	.	.	.	.	.	.	.	.	.	.	.	.	.	.	.	.
=69	=69	=69	=69	=69	=69	=69	=69	=69	=69	=69	=69	=69	=69	=69	=69	=69	=69	=69	=69	=69	=69	=69	=69	=69	=69	=69	=69	=69	=69	=69	=69	=69	=69	=69	=69
!	!LO:S:color=darkblue	!	!	!	!	!	!	!	!	!	!	!	!	!	!	!	!	!	!	!	!	!	!	!	!	!	!	!	!	!	!	!	!	!	!
1ryy	(4..Bn\	dą-	.	ven-	Bald	.	1ryy	.	.	(4..Bn\	dą-	Le	Bald	.	.	.	1ryy	1r	.	.	.	.	.	1ryy	.	.	1r	.	.	.	.	.	.	.	.
.	16BB/)	-sa	.	-to	streift	.	.	.	.	16g#X 16B\)	-sa	va_il	.	.	.	.	.	.	.	.	.	.	.	.	.	.	.	.	.	.	.	.	.	.	.
.	4..BB/	się	.	nel-	es	.	.	.	.	4..g# 4..B\	się	ca-	streift	.	.	.	.	.	.	.	.	.	.	.	.	.	.	.	.	.	.	.	.	.	.
.	16B\	śród	.	-le	.	.	.	.	.	16f#X 16A\	śród	-po	es,	.	.	.	.	.	.	.	.	.	.	.	.	.	.	.	.	.	.	.	.	.	.
!!LO:LB:g=original
=70	=70	=70	=70	=70	=70	=70	=70	=70	=70	=70	=70	=70	=70	=70	=70	=70	=70	=70	=70	=70	=70	=70	=70	=70	=70	=70	=70	=70	=70	=70	=70	=70	=70	=70	=70
*	*	*	*	*	*	*	*	*	*	*^	*	*	*	*	*	*	*	*	*	*	*	*	*	*	*	*	*	*	*	*	*	*	*	*	*
1ryy	4..B\	nie-	a-	.	fast	.	1ryy	.	.	8.e 8.G#X/	2.ryy	nie-	fin	streift	.	.	.	1ryy	2r	.	.	.	.	.	1ryy	.	.	2r	.	.	.	.	.	.	.	.
.	.	.	.	.	.	.	.	.	.	16d#X 16F##X/	.	-bios	al	es	.	.	.	.	.	.	.	.	.	.	.	.	.	.	.	.	.	.	.	.	.	.
.	.	.	.	.	.	.	.	.	.	8.e 8.G#/	.	le-	ciel	fast	.	.	.	.	.	.	.	.	.	.	.	.	.	.	.	.	.	.	.	.	.	.
.	16BB/	-bios	-li	.	die	.	.	.	.	16e#X 16G#/	.	-ci	si	die	.	.	.	.	.	.	.	.	.	.	.	.	.	.	.	.	.	.	.	.	.	.
.	4..BB/	le-	strin-	.	wol-	.	.	.	.	4f#X 4A/	.	le-	sin-	Wol-	.	.	.	.	4r	.	.	.	.	.	.	.	.	4r	.	.	.	.	.	.	.	.
.	.	.	.	.	.	.	.	.	.	8B/	8B\	-ci	-ge	-ken,	.	.	.	.	8.r	.	.	.	.	.	.	.	.	8.r	.	.	.	.	.	.	.	.
.	.	.	.	.	.	.	.	.	.	8r	8r	.	.	.	.	.	.	.	.	.	.	.	.	.	.	.	.	.	.	.	.	.	.	.	.	.
.	16B\	-ci	-ge_il	.	-ken,	.	.	.	.	.	.	.	.	.	.	.	.	.	16b\	w_pie-	La	.	.	.	.	.	.	16b\	w_pie-	s'a	La	bald	.	.	.	.
=71	=71	=71	=71	=71	=71	=71	=71	=71	=71	=71	=71	=71	=71	=71	=71	=71	=71	=71	=71	=71	=71	=71	=71	=71	=71	=71	=71	=71	=71	=71	=71	=71	=71	=71	=71	=71
!	!LO:S:color=darkblue	!	!	!	!	!	!	!	!	!	!	!	!	!	!	!	!	!	!	!	!	!	!	!	!	!	!	!	!	!	!	!	!	!	!	!
1ryy	(<4..B\	nu-	ca-	.	bald	.	1ryy	.	.	1r	1r	.	.	.	.	.	.	1ryy	4..g#X/	-nis-	brez-	.	.	.	1ryy	.	.	4..b\	-nis-	da	brez-	schiesst's	.	.	.	.
.	16BB/)	-rza	-po	.	.	.	.	.	.	.	.	.	.	.	.	.	.	.	16g#/	-tych	-za	.	.	.	.	.	.	16b\	-tych	.	-za	da-	.	.	.	.
.	4..BB/	się	le-	.	schiesst's	.	.	.	.	.	.	.	.	.	.	.	.	.	4..g#/	wód	nel-	.	.	.	.	.	.	4..b\	wód	ciel	nel-	-von,	.	.	.	.
.	16B\	w_pie-	-vae	.	da-	.	.	.	.	.	.	.	.	.	.	.	.	.	16f#X/	nur-	-le	.	.	.	.	.	.	16a/	nur-	.	-le	bald	.	.	.	.
*	*	*	*	*	*	*	*	*	*	*v	*v	*	*	*	*	*	*	*	*	*	*	*	*	*	*	*	*	*	*	*	*	*	*	*	*	*
=72	=72	=72	=72	=72	=72	=72	=72	=72	=72	=72	=72	=72	=72	=72	=72	=72	=72	=72	=72	=72	=72	=72	=72	=72	=72	=72	=72	=72	=72	=72	=72	=72	=72	=72	=72
*	*	*	*	*	*	*	*	*	*	*	*	*	*	*	*	*	*	*^	*	*	*	*	*	*	*	*	*^	*	*	*	*	*	*	*	*
!	!	!	!	!	!	!	!	!	!	!	!	!	!	!	!	!	!	!	!LO:TX:b:t=P:stem.color=red:problem	!	!	!	!	!	!	!	!	!	!LO:TX:b:t=P:stem.color=red:problem	!	!	!	!	!	!	!	!
1ryy	4..B\	-ni-	fin	.	-von,	.	1ryy	.	.	1r	.	.	.	.	.	.	1ryy	8.e/L	8.e\	-ku-	gran-	.	.	.	1ryy	.	.	8.g#X/L	8.g#X\	-ku-	.	gran-	schiesst's	.	.	.	.
!	!	!	!	!	!	!	!	!	!	!	!	!	!	!	!	!	!	!	!LO:TX:b:t=P:stem.color=red:problem	!	!	!	!	!	!	!	!	!	!LO:TX:b:t=P:stem.color=red:problem	!	!	!	!	!	!	!	!
.	.	.	.	.	.	.	.	.	.	.	.	.	.	.	.	.	.	16f#X/Jk	16f#X\	.	-di	.	.	.	.	.	.	16b/Jk	16b\	.	.	-di	da-	.	.	.	.
.	.	.	.	.	.	.	.	.	.	.	.	.	.	.	.	.	.	8.g#X/	2.ryy	-je	a-	.	.	.	.	.	.	8.ee\	2.ryy	-je	.	a-	-von	.	.	.	.
.	16B\	-stych	al	.	bald	.	.	.	.	.	.	.	.	.	.	.	.	16a/	.	za-	-li	.	.	.	.	.	.	16ff#X\	.	za-	.	-li	be-	.	.	.	.
.	8.B\	wód	ciel	.	schiesst's	.	.	.	.	.	.	.	.	.	.	.	.	8a/	.	-mie-	strin-	.	.	.	.	.	.	8ff#\	.	-mie-	.	strin-	-flü-	.	.	.	.
.	.	.	.	.	.	.	.	.	.	.	.	.	.	.	.	.	.	8b/	.	-ci	-ge	.	.	.	.	.	.	8b\	.	-ci	.	-ge	-gelt.	.	.	.	.
.	16B\	za-	[[strin-	si	be-	.	.	.	.	.	.	.	.	.	.	.	.	.	.	.	.	.	.	.	.	.	.	.	.	.	.	.	.	.	.	.	.
.	8.B\	-mie-	-ge]]	strin-	-flü-	.	.	.	.	.	.	.	.	.	.	.	.	4r	.	.	.	.	.	.	.	.	.	4r	.	.	.	.	.	.	.	.	.
.	16c\	-ci	.	-ge_il	-gelt	.	.	.	.	.	.	.	.	.	.	.	.	.	.	.	.	.	.	.	.	.	.	.	.	.	.	.	.	.	.	.	.
*	*	*	*	*	*	*	*	*	*	*	*	*	*	*	*	*	*	*v	*v	*	*	*	*	*	*	*	*	*v	*v	*	*	*	*	*	*	*	*
!!LO:PB:g=original
=73	=73	=73	=73	=73	=73	=73	=73	=73	=73	=73	=73	=73	=73	=73	=73	=73	=73	=73	=73	=73	=73	=73	=73	=73	=73	=73	=73	=73	=73	=73	=73	=73	=73	=73	=73
*	*	*color:grey	*	*	*	*	*	*	*	*	*	*	*	*	*	*	*	*	*	*	*	*	*	*	*	*	*	*	*	*	*	*	*	*	*
1ryy	4..c\	Chwy-	Il_ven-	streift	.	.	1ryy	.	.	4..c\	chwy-	Il_ven-	ven-	streift	.	.	1ryy	1r	.	.	.	.	.	1ryy	.	.	1r	.	.	.	.	.	.	.	.
.	16C/	-ta	-to	es	.	.	.	.	.	16f 16A\	-ta	.	-to	es	.	.	.	.	.	.	.	.	.	.	.	.	.	.	.	.	.	.	.	.	.
!	!	!	!	!	!	!	!	!	!	!LO:S:s=2:note:problem=note-level slur	!	!	!	!	!	!	!	!	!	!	!	!	!	!	!	!	!	!	!	!	!	!	!	!	!
.	4..C/	wiatr	nel-	fast,	.	.	.	.	.	(4..a (>4..c\	wiatr	-to	nel-	fast	.	.	.	.	.	.	.	.	.	.	.	.	.	.	.	.	.	.	.	.	.
.	16c\	.	-le	bald	.	.	.	.	.	16g) 16B-X\)	.	nelle	-le	.	.	.	.	.	.	.	.	.	.	.	.	.	.	.	.	.	.	.	.	.	.
=74	=74	=74	=74	=74	=74	=74	=74	=74	=74	=74	=74	=74	=74	=74	=74	=74	=74	=74	=74	=74	=74	=74	=74	=74	=74	=74	=74	=74	=74	=74	=74	=74	=74	=74	=74
*	*	*color:auto	*	*	*	*	*	*	*	*	*	*	*	*	*	*	*	*	*	*	*	*	*	*	*	*	*	*	*	*	*	*	*	*	*
1ryy	4..c\	chwy-	gran-	streift	.	.	1ryy	.	.	8.f 8.A\	chwy-	gran-	gran-	streift	.	.	1ryy	1r	.	.	.	.	.	1ryy	.	.	1r	.	.	.	.	.	.	.	.
.	.	.	.	.	.	.	.	.	.	16e 16G#X\	-ta	-di	-di	es	.	.	.	.	.	.	.	.	.	.	.	.	.	.	.	.	.	.	.	.	.
.	.	.	.	.	.	.	.	.	.	8.f 8.A\	wiatr	a-	a-	fast	.	.	.	.	.	.	.	.	.	.	.	.	.	.	.	.	.	.	.	.	.
.	16c\	-ta	-di	es	.	.	.	.	.	16f#X 16A\	pod	-li	-li	die	.	.	.	.	.	.	.	.	.	.	.	.	.	.	.	.	.	.	.	.	.
.	8.c\	wiatr	a-	fast	.	.	.	.	.	8g 8B-X\	skrzy-	strin-	strin-	Wol-	.	.	.	.	.	.	.	.	.	.	.	.	.	.	.	.	.	.	.	.	.
.	.	.	.	.	.	.	.	.	.	8c\	-dła	-ge	-ge	-ken,	.	.	.	.	.	.	.	.	.	.	.	.	.	.	.	.	.	.	.	.	.
.	16c\	pod	-li	die	.	.	.	.	.	.	.	.	.	.	.	.	.	.	.	.	.	.	.	.	.	.	.	.	.	.	.	.	.	.	.
.	8.c\	skrzy-	stin-	Wol-	.	.	.	.	.	4r	.	.	.	.	.	.	.	.	.	.	.	.	.	.	.	.	.	.	.	.	.	.	.	.	.
.	16c#X\	-dła,	-ge_il	-ken,	.	.	.	.	.	.	.	.	.	.	.	.	.	.	.	.	.	.	.	.	.	.	.	.	.	.	.	.	.	.	.
=75	=75	=75	=75	=75	=75	=75	=75	=75	=75	=75	=75	=75	=75	=75	=75	=75	=75	=75	=75	=75	=75	=75	=75	=75	=75	=75	=75	=75	=75	=75	=75	=75	=75	=75	=75
!	!LO:S:color=darkblue	!	!	!	!	!	!	!	!	!	!	!	!	!	!	!	!	!LO:S:color=darkblue	!	!	!	!	!	!	!	!	!LO:S:color=darkblue	!	!	!	!	!	!	!	!
1ryy	(4..d\	gę-	ca-	fart	.	.	1ryy	.	.	1r	.	.	.	.	.	.	1ryy	(4..d/	gę-	S'affol-	vo-	.	.	1ryy	.	.	(4..dd\	gę-	S'affol-	Vo-	fort	.	.	.	.
.	16D\)	-sto	-po	.	.	.	.	.	.	.	.	.	.	.	.	.	.	16g/)	-sto	-la	-la	.	.	.	.	.	16b-X\)	-sto	-la	-la	.	.	.	.	.
.	4..D\	mor-	le-	jagt	.	.	.	.	.	.	.	.	.	.	.	.	.	4..b-X/	mor-	no-	su-	.	.	.	.	.	4..dd\	mor-	no	su-	jagt,	.	.	.	.
.	16d\	-skie	-va	das	.	.	.	.	.	.	.	.	.	.	.	.	.	16a/	-skie	-i	-gli_a-	.	.	.	.	.	16cc\	-skie	i	-gli_a-	das	.	.	.	.
!!LO:LB:g=original
=76	=76	=76	=76	=76	=76	=76	=76	=76	=76	=76	=76	=76	=76	=76	=76	=76	=76	=76	=76	=76	=76	=76	=76	=76	=76	=76	=76	=76	=76	=76	=76	=76	=76	=76	=76
1ryy	4..d\	snu-	fan-	fin	Schiff	.	1ryy	.	.	1r	.	.	.	.	.	.	1ryy	8.g/	snu-	fan-	-bis-	.	.	1ryy	.	.	8.b-X\	snu-	fan-	-bis-	Schiff	.	.	.	.
.	.	.	.	.	.	.	.	.	.	.	.	.	.	.	.	.	.	16f#X/	-ją	.	-si	.	.	.	.	.	16a\	-ją	-tas-	-si	fart	.	.	.	.
.	.	.	.	.	.	.	.	.	.	.	.	.	.	.	.	.	.	8.g/	się	-tasmi	l'al-	.	.	.	.	.	8.b-\	się	-mi	l'al-	jagt	.	.	.	.
.	16d\	-ją	.	al	fort	.	.	.	.	.	.	.	.	.	.	.	.	16g#X/	stra-	sui	-ma	.	.	.	.	.	16bn\	stra-	sui	-ma	ent-	.	.	.	.
.	8.d\	się	-tasmi	ciel	fort	.	.	.	.	.	.	.	.	.	.	.	.	4a/	-szy-	flut-	mi-	.	.	.	.	.	4cc\	-szy-	flut-	mi-	-zü-	.	.	.	.
.	16d\	stra-	sui	si	ent-	.	.	.	.	.	.	.	.	.	.	.	.	.	.	.	.	.	.	.	.	.	.	.	.	.	.	.	.	.	.
.	8.d\	-szy-	flut-	spin-	-zü-	.	.	.	.	.	.	.	.	.	.	.	.	4a/	-dła	-ti	-a,	.	.	.	.	.	4a/	-dła	-ti	-a,	-gelt,	.	.	.	.
.	16d#X\	-dła	-ti	-ge	-gelt,	.	.	.	.	.	.	.	.	.	.	.	.	.	.	.	.	.	.	.	.	.	.	.	.	.	.	.	.	.	.
=77	=77	=77	=77	=77	=77	=77	=77	=77	=77	=77	=77	=77	=77	=77	=77	=77	=77	=77	=77	=77	=77	=77	=77	=77	=77	=77	=77	=77	=77	=77	=77	=77	=77	=77	=77
!	!	!	!	!	!	!LO:DY:b:rj	!	!	!	!	!	!	!	!	!	!LO:DY:a:rj	!	!	!	!	!	!	!LO:DY:a:rj	!	!	!	!	!	!	!	!	!	!	!	!LO:DY:a:rj
1ryy	4.e^\	o-	Bal-	Vo-	neigt	ff	1ryy	.	.	[1a [>1e^	wiatr	Il_ven-	vo-	braust's	.	ff	1ryy	[1cc^	wiatr	Il_ven-	Vo-	.	ff	1ryy	.	.	[1aa [>1ee^	wiatr	Il_ven-	Vo-	braust's	.	.	.	ff
.	8A\	-kręt	.	-la	sich	.	.	.	.	.	.	.	.	.	.	.	.	.	.	.	.	.	.	.	.	.	.	.	.	.	.	.	.	.	.
.	4.e^\	zry-	-za	su-	jäh-	.	.	.	.	.	.	.	.	.	.	.	.	.	.	.	.	.	.	.	.	.	.	.	.	.	.	.	.	.	.
.	8A\	-wa	la	-gli_a-	-lings,	.	.	.	.	.	.	.	.	.	.	.	.	.	.	.	.	.	.	.	.	.	.	.	.	.	.	.	.	.	.
=78	=78	=78	=78	=78	=78	=78	=78	=78	=78	=78	=78	=78	=78	=78	=78	=78	=78	=78	=78	=78	=78	=78	=78	=78	=78	=78	=78	=78	=78	=78	=78	=78	=78	=78	=78
1ryy	8e\	się	na-	-bis-	seit-	.	1ryy	.	.	8a] 8e\]	.	-to	.	.	.	.	1ryy	8cc\]	.	-to	.	.	.	1ryy	.	.	8aa] 8ee\]	.	-to	.	.	.	.	.	.
.	8A\	z_wę-	-ve	-si	-wärts,	.	.	.	.	8e\	a	Bal-	-la	es	.	.	.	8a/	a	Bal-	-la	.	.	.	.	.	8cc\	a	Bal-	-ca	es	.	.	.	.
.	8c\	-dzi-	sui	l'al-	neigt	.	.	.	.	8e\	o-	-za	gio-	neigt	.	.	.	8a/	o-	-za	gio-	.	.	.	.	.	8ee\	o-	-za	gio-	neigt	.	.	.	.
.	8A\	-dła	ma-	-ma	sich	.	.	.	.	8e\	-kręt	la	-ja,	sich	.	.	.	8a/	-kręt	la	-ja,	.	.	.	.	.	8cc\	-kręt	la	-ja,	sich	.	.	.	.
.	8c\	dą-	-ro-	mi-	jäh-	.	.	.	.	8e\	dą-	na-	spe-	jä-	.	.	.	8a/	dą-	na-	spe-	.	.	.	.	.	8ee\	dą-	na-	spe-	jä-	.	.	.	.
.	8A\	-sa	-si	-a	-lings,	.	.	.	.	8e\	-sa	-ve	-me,	-hlings,	.	.	.	8a/	-sa	-ve	-me,	.	.	.	.	.	8cc\	-sa	-ve	-me	-hlings,	.	.	.	.
.	8c\	się	Rom-	su-	neigt	.	.	.	.	8e\	się	rom-	fan-	neigt	.	.	.	8a/	się	rom-	fan-	.	.	.	.	.	8ee\	się	rom-	fan-	neigt	.	.	.	.
.	8A\	prze-	-pei	-gli_a	sich	.	.	.	.	8e\	prze-	-pei	-ta-	sich	.	.	.	8a/	prze-	-pei	-ta-	.	.	.	.	.	8cc\	prze-	-pei	-ta-	sich	.	.	.	.
!!LO:PB:g=original
=79	=79	=79	=79	=79	=79	=79	=79	=79	=79	=79	=79	=79	=79	=79	=79	=79	=79	=79	=79	=79	=79	=79	=79	=79	=79	=79	=79	=79	=79	=79	=79	=79	=79	=79	=79
1ryy	(1F	-wa-	fre-	bis-	seit	.	1ryy	.	.	[1d	-wa-	fre-	-si-	seit-	.	.	1ryy	(1a	-wa-	fie-	-si-	.	.	1ryy	.	.	[1dd	-wa-	fre-	-si-	.	seit	.	.	.
=80	=80	=80	=80	=80	=80	=80	=80	=80	=80	=80	=80	=80	=80	=80	=80	=80	=80	=80	=80	=80	=80	=80	=80	=80	=80	=80	=80	=80	=80	=80	=80	=80	=80	=80	=80
1ryy	4.G\)	.	-ni	-si	.	.	1ryy	.	.	4d\]	.	-ni	-a!	.	.	.	1ryy	4.b\)	.	-ni	-a!	.	.	1ryy	.	.	4.dd\]	.	-ni	-a!	.	.	.	.	.
.	.	.	.	.	.	.	.	.	.	4d\	-la	rom-	Il	wärts,	.	.	.	.	.	.	.	.	.	.	.	.	.	.	.	.	.	.	.	.	.
.	8G\	-la	rom-	Il	wärts,	.	.	.	.	.	.	.	.	.	.	.	.	8b\	-la	rom-	.	.	.	.	.	.	8dd\	-la	rom-	O	Il	wärts,	.	.	.
.	4G\	się	-pe-	mi-	neigt	.	.	.	.	4g\	się	-pe-	mi-	neigt	.	.	.	4b\	się	-pe-	.	.	.	.	.	.	4dd\	się	-pe-	qual	mi-	neigt	.	.	.
.	4G\	prze-	-i	-o	sich	.	.	.	.	4fn\	prze-	-i	-o	sich	.	.	.	4b\	prze-	-i	.	.	.	.	.	.	4dd\	prze-	-i	ab-	-o	sich	.	.	.
=81	=81	=81	=81	=81	=81	=81	=81	=81	=81	=81	=81	=81	=81	=81	=81	=81	=81	=81	=81	=81	=81	=81	=81	=81	=81	=81	=81	=81	=81	=81	=81	=81	=81	=81	=81
1ryy	(1G#X	-wa-	fre-	cuo-	seit	.	1ryy	.	.	[1e	-wa-	fre-	cuo-	seit-	.	.	1ryy	(1b	-wa-	fre-	.	.	.	1ryy	.	.	[1ee	-wa-	fre-	-brez-	cuo-	seit	.	.	.
=82	=82	=82	=82	=82	=82	=82	=82	=82	=82	=82	=82	=82	=82	=82	=82	=82	=82	=82	=82	=82	=82	=82	=82	=82	=82	=82	=82	=82	=82	=82	=82	=82	=82	=82	=82
1ryy	4.A\)	.	-ni	-[[re]]-	.	.	1ryy	.	.	4.e\]	.	-ni	.	.	.	.	1ryy	4.cc\)	.	-ni	.	.	.	1ryy	.	.	4.ee\]	.	-ni	-za	.	.	.	.	.
.	8A\	-la	s'a-	-re	wärts,	.	.	.	.	8e\	-la	s'a-	-re	-wärts,	.	.	.	8cc\	-la	s'a-	.	.	.	.	.	.	8cc\	-la	s'a-	za	-re	wärts,	.	.	.
.	4A\	się,	-dagia	vo-	neigt	.	.	.	.	4e\	się,	-dagia	vo-	neigt	.	.	.	4cc\	się	-dagia	.	.	.	.	.	.	4cc\	się	-dagia	di	vo-	neigt	.	.	.
.	4A\	nur-	s'a-	-le al	sich	.	.	.	.	4e\	nur-	s'a-	-le_al	sich	.	.	.	4cc\	nur-	s'a-	.	.	.	.	.	.	4cc\	nur-	s'a-	vo-	-la_al	sich	.	.	.
=83	=83	=83	=83	=83	=83	=83	=83	=83	=83	=83	=83	=83	=83	=83	=83	=83	=83	=83	=83	=83	=83	=83	=83	=83	=83	=83	=83	=83	=83	=83	=83	=83	=83	=83	=83
1ryy	[1d	-ku-	-da	ciel!	seit-	.	1ryy	.	.	[1f	-ku-	-da	ciel	seit-	.	.	1ryy	[1dd	-ku-	-da	.	.	.	1ryy	.	.	[1ff	-ku-	-da-	-lar	ciel	seit-	.	.	.
!!LO:LB:g=original
=84	=84	=84	=84	=84	=84	=84	=84	=84	=84	=84	=84	=84	=84	=84	=84	=84	=84	=84	=84	=84	=84	=84	=84	=84	=84	=84	=84	=84	=84	=84	=84	=84	=84	=84	=84
1ryy	8d\]	.	gia-	.	.	.	1ryy	.	.	8f\]	.	gia-	.	.	.	.	1ryy	8dd\]	.	gia-	.	.	.	1ryy	.	.	8ff\]	.	-gia	.	.	.	.	.	.
.	8G#X\	-je	-ne	il	wärts	.	.	.	.	8d\	-je	-ne	il	wärts	.	.	.	8b\	-je	-ne	il	.	.	.	.	.	8ff\	-je	ne	[[il	il	-wärts	.	.	.
.	8A\	śród	i	mi-	und	.	.	.	.	8c\	śród	i	mi-	und	.	.	.	8cc\	śród	i	mi-	.	.	.	.	.	8ff\	śród	i	mio	mi-	und	.	.	.
.	8G#\	pie-	vor-	-o	in	.	.	.	.	8d\	pie-	vol-	-o	in	.	.	.	8b\	pie-	vol-	-o	.	.	.	.	.	8ff\	pie-	vor-	cuo-	-o	in	.	.	.
.	8A\	-ni-	-ti	cuo-	Schau-	.	.	.	.	8c\	-ni-	-ti	cuo-	Schau-	.	.	.	8cc\	-ni-	-ti	cuo-	.	.	.	.	.	8ff\	-ni-	-ti	-re	cuo-	Schaum-	.	.	.
.	8G#\	-stej	ci	-re	-mes-	.	.	.	.	8d\	-stej	ci	-re	-mes	.	.	.	8b\	-stej	ci	-re	.	.	.	.	.	8ff\	-stej	li	vole	-re	-es	.	.	.
.	8A\	wo-	schiu-	vo-	-wel-	.	.	.	.	8c\	wo-	schiu-	vo-	wel-	.	.	.	8cc\	wo-	schiu-	vo-	.	.	.	.	.	8ff\	wo-	schiu-	al]]	vo-	wel-	.	.	.
.	8G#\	-dy	-mo-	-le_al	-len	.	.	.	.	8d\	-dy	-mo-	-le_al	-len	.	.	.	8b\	-dy	-mo-	-le_al	.	.	.	.	.	8ff\	-dy	-mo-	.	-le_al	-len	.	.	.
=85	=85	=85	=85	=85	=85	=85	=85	=85	=85	=85	=85	=85	=85	=85	=85	=85	=85	=85	=85	=85	=85	=85	=85	=85	=85	=85	=85	=85	=85	=85	=85	=85	=85	=85	=85
!	!	!	!	!	!	!	!	!	!	!	!	!	!	!	!	!	!	!	!	!	!	!	!	!	!	!	!LO:TX:a:B:t=R:color=red	!	!	!	!	!	!	!	!
1ryy	8A\	fal	-si	ciel.	taucht.	.	1ryy	.	.	8c\	fal	-si	ciel!	taucht!	.	.	1ryy	8cc\	fal	-si	ciel!	.	.	1ryy	.	.	8ff\	fal	-si	.	ciel!	taucht!	.	.	.
.	8r	.	.	.	.	.	.	.	.	8r	.	.	.	.	.	.	.	8r	.	.	.	.	.	.	.	.	8r	.	.	.	.	.	.	.	.
.	4r	.	.	.	.	.	.	.	.	4r	.	.	.	.	.	.	.	4r	.	.	.	.	.	.	.	.	4r	.	.	.	.	.	.	.	.
.	2r	.	.	.	.	.	.	.	.	2r	.	.	.	.	.	.	.	2r	.	.	.	.	.	.	.	.	2r	.	.	.	.	.	.	.	.
=86	=86	=86	=86	=86	=86	=86	=86	=86	=86	=86	=86	=86	=86	=86	=86	=86	=86	=86	=86	=86	=86	=86	=86	=86	=86	=86	=86	=86	=86	=86	=86	=86	=86	=86	=86
!	!	!	!	!	!	!	!	!	!	!	!	!	!	!	!	!	!	!	!	!	!	!	!	!	!	!	!LO:TX:a:t=1.	!	!	!	!	!	!	!	!
1ryy	1r	.	.	.	.	.	1ryy	.	.	1r	.	.	.	.	.	.	1ryy	1r	.	.	.	.	.	1ryy	.	.	1r	.	.	.	.	.	.	.	.
!!LO:PB:g=original
=87	=87	=87	=87	=87	=87	=87	=87	=87	=87	=87	=87	=87	=87	=87	=87	=87	=87	=87	=87	=87	=87	=87	=87	=87	=87	=87	=87	=87	=87	=87	=87	=87	=87	=87	=87
!	!	!	!	!	!	!	!	!	!	!	!	!	!	!	!	!	!	!	!	!	!	!	!	!	!	!	!LO:TX:a:Bi:t=Pomposo.	!	!	!	!	!	!	!	!LO:DY:a:rj
1ryy	4G\	kark	Le-	Bal-	.	.	1ryy	.	.	4d\	kark	Le-	Bal-	.	.	.	1ryy	4b\	kark	Le-	Bal-	.	.	1ryy	.	.	4ff\	kark	Le-	Bal-	Die	.	.	.	ff
.	8.G\	wzno-	-va	-za	.	.	.	.	.	8.d\	wzno-	-va	-za	.	.	.	.	8.b\	wzno-	-va	-za	.	.	.	.	.	8.ff\	wzno-	-va	-za	se-	.	.	.	.
.	16G\	-si	il	la	.	.	.	.	.	16d\	-si	il	la	.	.	.	.	16b\	-si	il	la	.	.	.	.	.	16ff\	-si	il	la	-gel	.	.	.	.
.	4G\	a	col-	na-	.	.	.	.	.	4d\	a	col-	na-	.	.	.	.	4b\	a	col-	na-	.	.	.	.	.	4ff\	a	col-	na-	schwel-	.	.	.	.
.	8.G\	dep-	-lo_e	-ve	.	.	.	.	.	8.G/	dep-	-lo_e	-ve	.	.	.	.	8.b\	dep-	-lo_e	-ve	.	.	.	.	.	8.ee\	dep-	-lo_e	-ve	-len	.	.	.	.
.	16G\	-ce	sui	sui	.	.	.	.	.	16d\	-ce	sui	sui	.	.	.	.	16b\	-ce	sui	sui	.	.	.	.	.	16ff 16dd\	-ce	sui	sui	fort	.	.	.	.
=88	=88	=88	=88	=88	=88	=88	=88	=88	=88	=88	=88	=88	=88	=88	=88	=88	=88	=88	=88	=88	=88	=88	=88	=88	=88	=88	=88	=88	=88	=88	=88	=88	=88	=88	=88
!	!	!	!	!	!	!	!	!	!	!LO:T:color=darkblue	!	!	!	!	!	!	!	!LO:S:color=darkblue	!	!	!	!	!	!	!	!	!LO:S:color=darkblue	!	!	!	!	!	!	!	!
!	!LO:T:color=darkblue	!	!	!	!	!	!	!	!	!LO:S:color=darkblue	!	!	!	!	!	!	!	!	!	!	!	!	!	!	!	!	!	!	!	!	!	!	!	!	!
1ryy	[4G\	fa-	flut-	fie-	.	.	1ryy	.	.	(<[4e\	fa-	flut-	fie-	.	.	.	1ryy	(<4cc\	fa-	flut-	fie-	.	.	1ryy	.	.	(4aa 4cc\	fa-	flut-	fie-	jagt	.	.	.	.
.	8.G\]	-le	-ti	-ri	.	.	.	.	.	8.e] 8.c\)	-le	-ti	-ri	.	.	.	.	8.f/)	-le	-ti	-ri	.	.	.	.	.	8.gg) 8.ee\	-le	-ti	-ri	.	.	.	.	.
.	16G\	i	sino_al	ma-	.	.	.	.	.	16f 16d\	i	sin_al	ma-	.	.	.	.	16f/	i	sin_al	ma-	.	.	.	.	.	16ff 16dd\	i	sin_al	ma-	das	.	.	.	.
!	!LO:T:color=darkblue	!	!	!	!	!	!	!	!	!LO:S:color=darkblue	!	!	!	!	!	!	!	!LO:T:color=darkblue	!	!	!	!	!	!	!	!	!LO:S:color=darkblue	!	!	!	!	!	!	!	!
.	[4G\	skróś	cie-	-ro-	.	.	.	.	.	(4g 4e\	skroś	cie-	-ro-	.	.	.	.	[4b-X\	skroś	cie-	-ro-	.	.	.	.	.	(4ee 4cc#X\	skróś	ciel-	-ro-	Schiff-	.	.	.	.
.	8.G\]	nie-	-lo	-si,	.	.	.	.	.	8.G/)	nie-	-lo	-si,	.	.	.	.	8.b-\]	nie-	-lo	-si	.	.	.	.	.	8.dd#X) 8.cc#\	nie-	-lo	-si,	.	.	.	.	.
.	16G\	-bios	si	sui	.	.	.	.	.	16G/	-bios	si	sui	.	.	.	.	16b-\	-bios	Si	sui	.	.	.	.	.	16ee 16cc#\	-bios	si	sui	-ent-	.	.	.	.
=89	=89	=89	=89	=89	=89	=89	=89	=89	=89	=89	=89	=89	=89	=89	=89	=89	=89	=89	=89	=89	=89	=89	=89	=89	=89	=89	=89	=89	=89	=89	=89	=89	=89	=89	=89
1ryy	4G\	le-	spin-	Flut-	.	.	1ryy	.	.	4g 4d\	le-	spin-	flut-	.	.	.	1ryy	4bn\	le-	spin-	flut-	.	.	1ryy	.	.	4gg 4ddn\	le-	spin-	flut-	-zü-	.	.	.	.
.	8G\	-ci,	-ge	-ti	.	.	.	.	.	8fn 8d\	-ci,	-ge	-ti	.	.	.	.	8b\	-ci,	-ge	-ti	.	.	.	.	.	8ffn 8dd\	-ci,	-ge	-ti	-gelt,	.	.	.	.
.	16r	.	.	.	.	.	.	.	.	16r	.	.	.	.	.	.	.	16r	.	.	.	.	.	.	.	.	16r	.	.	.	.	.	.	.	.
.	16G\	kark	Le-	schiu-	.	.	.	.	.	16e 16c\	kark	Le-	schiu-	.	.	.	.	16cc\	kark	Le-	schiu-	.	.	.	.	.	16ee 16cc\	kark	Le-	schiu-	Es	.	.	.	.
.	8G\	wzno-	-va	-mo-	.	.	.	.	.	8d 8B\	wzno-	-va	-mo-	.	.	.	.	8dd\	wzno-	-va	-mo-	.	.	.	.	.	8dd 8b\	wzno-	-va	-mo-	neigt	.	.	.	.
.	8G\	-si,	il	-si_Il	.	.	.	.	.	8G/	-si,	il	-si Il	.	.	.	.	8g/	-si	il	-si_Il	.	.	.	.	.	8g/	-si,	il	-si_Il	sich	.	.	.	.
.	8G\	dep-	col-	ca-	.	.	.	.	.	8G/	dep-	col-	ca-	.	.	.	.	8g/	dep-	collo_e	Ca-	.	.	.	.	.	8g/	dep-	collo_e	ca-	jäh-	.	.	.	.
.	8G\	-ce	-lo	-po	.	.	.	.	.	8G/	-ce	-lo	-po	.	.	.	.	8g/	-ce	sui	-po	.	.	.	.	.	8g/	-ce	sui	-po	-lings	.	.	.	.
!!LO:LB:g=original
=90	=90	=90	=90	=90	=90	=90	=90	=90	=90	=90	=90	=90	=90	=90	=90	=90	=90	=90	=90	=90	=90	=90	=90	=90	=90	=90	=90	=90	=90	=90	=90	=90	=90	=90	=90
1ryy	8B\	le-	.	.	.	.	1ryy	.	.	8d\	le-	.	.	neigt	.	.	1ryy	4.g/	fa-	flut-	le	.	.	1ryy	.	.	4.g/	fa-	flut-	le-	seit	.	.	.	.
.	8c\	-va_il	.	.	.	.	.	.	.	8e\	-va,_il	.	.	sich	.	.	.	.	.	.	.	.	.	.	.	.	.	.	.	.	.	.	.	.	.
.	8d\	ca-	.	.	.	.	.	.	.	8f\	ca-	.	.	seit-	.	.	.	.	.	.	.	.	.	.	.	.	.	.	.	.	.	.	.	.	.
.	8c\	-po	.	.	.	.	.	.	.	8f#X\	-po	.	.	-wärts,	.	.	.	8dd\	-le	-ti	vae	.	.	.	.	.	8f#X/	-le	-ti	-va	wärts,	.	.	.	.
.	8B\	si-	.	.	.	.	.	.	.	8g\	si-	.	.	faucht	.	.	.	8b\	i	si-	fi-	.	.	.	.	.	8g/	i	si-	fi-	faucht	.	.	.	.
.	8d\	-no_al	.	.	.	.	.	.	.	8fn\	-no_al	.	.	in	.	.	.	8dd\	skróś	-no_al	-no_al	.	.	.	.	.	8ffn\	skróś	-no_al	-no_al	in	.	.	.	.
.	8G\	ciel	.	.	.	.	.	.	.	8d\	ciel	.	.	Schau-	.	.	.	8b\	nie-	ciel	ciel	.	.	.	.	.	8dd\	nie-	ciel	ciel	Schau-	.	.	.	.
!	!	!	!	!	!	!	!	!	!	!	!	!	!	!	!	!	!	!LO:TX:a:t=x	!	!	!	!	!	!	!	!	!	!	!	!	!	!	!	!	!
.	8G\	si	.	.	.	.	.	.	.	8d\	si	.	.	-mes	.	.	.	8a\	-bios	si	si	.	.	.	.	.	8gg 8dd\	-bios	si	si	-mes-	.	.	.	.
=91	=91	=91	=91	=91	=91	=91	=91	=91	=91	=91	=91	=91	=91	=91	=91	=91	=91	=91	=91	=91	=91	=91	=91	=91	=91	=91	=91	=91	=91	=91	=91	=91	=91	=91	=91
1ryy	4.c^\	le-	spin-	.	.	.	1ryy	.	.	4.c^\	le-	si_spin-	spin-	wel-	.	.	1ryy	4.g^>/	le-	spin-	spin-	.	.	1ryy	.	.	4.ee^\	le-	spin-	spin-	-wel-	.	.	.	.
.	8G\	-ci	-ge	.	.	.	.	.	.	8e\	-ci	-ge_si	-ge	-len,	.	.	.	8g/	-ci	-ge_si	-ge	.	.	.	.	.	8cc\	-ci	-ge_si	-ge	-len,	.	.	.	.
.	4.c^\	le-	fin	.	.	.	.	.	.	4.c^\	le-	spin-	fin	taucht	.	.	.	4.g^>/	le-	spin-	fin	.	.	.	.	.	4.ee^\	le-	spin-	fin	taucht	.	.	.	.
.	8G\	-ci	al	.	.	.	.	.	.	8e\	-ci	-ge_al	al	in	.	.	.	8g/	-ci	-ge	al	.	.	.	.	.	8cc\	-ci	ge_al	al	in	.	.	.	.
=92	=92	=92	=92	=92	=92	=92	=92	=92	=92	=92	=92	=92	=92	=92	=92	=92	=92	=92	=92	=92	=92	=92	=92	=92	=92	=92	=92	=92	=92	=92	=92	=92	=92	=92	=92
1ryy	[2c^\	na	cie-	.	.	.	1ryy	.	.	[2g [2c^\	na	cie-	cie-	Schau-	.	.	1ryy	[2cc^\	na	cie-	cie[[l]]-	.	.	1ryy	.	.	[2ee^\	na	cielo	ciel-	Schau-	.	.	.	.
.	8c\]	.	.	.	.	.	.	.	.	8g] 8c\]	.	-lo	.	.	.	.	.	8cc\]	.	-lo	.	.	.	.	.	.	8ee\]	.	.	.	.	.	.	.	.
.	8c\	skróś	-lo_il	.	.	.	.	.	.	8e\	skróś	al	-lo_il	-mes	.	.	.	8g/	skróś	al	-lo_il	.	.	.	.	.	8ee\	skróś	al	-lo_il	-mes-	.	.	.	.
.	8c\	nie-	ca-	.	.	.	.	.	.	8e\	nie-	cie-	ca-	wel-	.	.	.	8g/	nie-	cielo	ca-	.	.	.	.	.	8ee\	nie-	cielo	ca-	-wel-	.	.	.	.
.	8c\	-bios	-po	.	.	.	.	.	.	8e\	-bios	-lo_si	-po	-len,	.	.	.	8g/	-bios	si	-po	.	.	.	.	.	8ee\	-bios	si	-po	-len,	.	.	.	.
!!LO:PB:g=original
=93	=93	=93	=93	=93	=93	=93	=93	=93	=93	=93	=93	=93	=93	=93	=93	=93	=93	=93	=93	=93	=93	=93	=93	=93	=93	=93	=93	=93	=93	=93	=93	=93	=93	=93	=93
1ryy	4.c\	le-	spin-	spin-	.	.	1ryy	.	.	4.c\	le-	spin-	spin-	taucht	.	.	1ryy	4.g/	le-	spin-	spin-	.	.	1ryy	.	.	4.ee\	le-	spin-	spin-	.	.	.	taucht	.
.	8G\	-ci	-ge_di	-ge	.	.	.	.	.	8e\	-ci	-ge_si	-ge	in	.	.	.	8g/	-ci	-ge_si	-ge	.	.	.	.	.	8cc\	-ci	-ge_si	-ge	.	.	.	in	.
.	4.c\	le-	spin-	si-	.	.	.	.	.	4.c\	le-	spin-	fin	Schau-	.	.	.	4.g/	le-	spin-	fin	.	.	.	.	.	4.ee\	le-	spin-	fin	.	.	.	Schau-	.
.	8G\	-ci	-ge_il	-no_al	.	.	.	.	.	8e\	-ci	-ge_il	al	-mes-	.	.	.	8g/	-ci	-ge_il	al	.	.	.	.	.	8cc\	-ci	-ge_il	al	.	.	.	-mes-	.
=94	=94	=94	=94	=94	=94	=94	=94	=94	=94	=94	=94	=94	=94	=94	=94	=94	=94	=94	=94	=94	=94	=94	=94	=94	=94	=94	=94	=94	=94	=94	=94	=94	=94	=94	=94
1ryy	4.c\	chwy-	ven-	ciel	.	.	1ryy	.	.	4.g 4.e\	chwy-	ven-	ciel,	-wel-	.	.	1ryy	4.cc\	chwy-	ven-	[[cie-	ciel,	.	1ryy	.	.	4.ee^\	chwy-	ven-	ciel,	.	ciel	.	-wel-	.
.	8c\	-ta	-to	si	.	.	.	.	.	8e\	-ta	-to	si	-len	.	.	.	8g/	-ta	-to	-lo	si	.	.	.	.	8ee\	-ta	-to	[[si	[[il	[[lo	si	-len	.
.	8c\	wiatr	nelle	spin-	.	.	.	.	.	8e\	wiatr	nelle	spin-	und	.	.	.	8g/	wiatr	nelle	sin	spin-	.	.	.	.	8ee\	wiatr	nelle	spin-	ca-	fin	spin-	und	.
.	8c\	pod	gran-	-ge	.	.	.	.	.	8e\	pod	gran-	-ge	die	.	.	.	8g/	pod	gran-	al	-ge	.	.	.	.	8ee\	pod	gran-	-ge	-po	al	-ge	die	.
.	8c\	skrzy-	-di	sino	.	.	.	.	.	8e\	skrzy-	-di	fin	Se-	.	.	.	8g/	skrzy-	-di	ciel	fi-	.	.	.	.	8ee\	skrzy-	-di	fin	fi-	ciel	fino	Se-	.
.	8c\	-dła	ali	al	.	.	.	.	.	8e\	-dła	ali	al	-gel	.	.	.	8g/	-dła	ali	si	-no_al	.	.	.	.	8ee\	-dła	ali	al	-no al	si	al	-gel	.
=95	=95	=95	=95	=95	=95	=95	=95	=95	=95	=95	=95	=95	=95	=95	=95	=95	=95	=95	=95	=95	=95	=95	=95	=95	=95	=95	=95	=95	=95	=95	=95	=95	=95	=95	=95
1ryy	[1c	le-	strin-	cie-	.	.	1ryy	.	.	[1g [>1e	le-	strin-	cie-	schwel-	.	.	1ryy	[1cc	le-	strin-	spin]]-	cie	.	1ryy	.	.	[1gg [>1ee^	le-	strin-	ciel]]	ciel]]	Spin]]	ciel-	schwel-	.
!!LO:LB:g=original
=96	=96	=96	=96	=96	=96	=96	=96	=96	=96	=96	=96	=96	=96	=96	=96	=96	=96	=96	=96	=96	=96	=96	=96	=96	=96	=96	=96	=96	=96	=96	=96	=96	=96	=96	=96
1ryy	1c]	.	.	.	.	.	1ryy	.	.	1g] 1e]	.	.	.	.	.	.	1ryy	1cc]	.	.	.	.	.	1ryy	.	.	1gg] 1ee]	.	.	.	.	.	.	.	.
=97	=97	=97	=97	=97	=97	=97	=97	=97	=97	=97	=97	=97	=97	=97	=97	=97	=97	=97	=97	=97	=97	=97	=97	=97	=97	=97	=97	=97	=97	=97	=97	=97	=97	=97	=97
1ryy	8C/	-ci.	.	-lo!	.	.	1ryy	.	.	8c\	-ci.	-ge	-lo!	-len!	.	.	1ryy	8c/	-ci	-ge!	.	-lo!	.	1ryy	.	.	8cc\	-ci.	-ge!	.	.	.	-lo!	-len!	.
.	8r	.	.	.	.	.	.	.	.	8r	.	.	.	.	.	.	.	8r	.	.	.	.	.	.	.	.	8r	.	.	.	.	.	.	.	.
.	4r	.	.	.	.	.	.	.	.	4r	.	.	.	.	.	.	.	4r	.	.	.	.	.	.	.	.	4r	.	.	.	.	.	.	.	.
.	2r	.	.	.	.	.	.	.	.	2r	.	.	.	.	.	.	.	2r	.	.	.	.	.	.	.	.	2r	.	.	.	.	.	.	.	.
==	==	==	==	==	==	==	==	==	==	==	==	==	==	==	==	==	==	==	==	==	==	==	==	==	==	==	==	==	==	==	==	==	==	==	==
*-	*-	*-	*-	*-	*-	*-	*-	*-	*-	*-	*-	*-	*-	*-	*-	*-	*-	*-	*-	*-	*-	*-	*-	*-	*-	*-	*-	*-	*-	*-	*-	*-	*-	*-	*-
!!!system-decoration: s1,s2,s3,s4,s5,s6,s7,s8
!!!RDF**kern: > = above
!!!RDF**kern: < = below
!!!RDF**kern: @ = marked note, color=grey
!!!RDF**kern: § = marked note, color=red
!!!RDF**kern: j = marked note, color=darkblue
!!!ENC: Andrzej Gręziak
!!!END: 2021-08-31
!!!ENC: Andrzej Kubiczek
!!!END: 2022-01-23
!!!YEC: Copyright 2022 Narodowy Instytut Fryderyka Chopina (https://polishscores.org)
!!!YEM: License CC-BY-4.0 (https://creativecommons.org/licenses/by/4.0)
